; G-code generated from DXF
G21 ; Set units to mm
G90 ; Absolute positioning
G0 X239.80508422851562 Y151.24266052246094 ; Move to start
G1 X239.85641479492188 Y150.8819122314453 ; Draw line
G0 X239.85641479492188 Y150.8819122314453 ; Move to start
G1 X240.15377807617188 Y149.27513122558594 ; Draw line
G0 X240.15377807617188 Y149.27513122558594 ; Move to start
G1 X240.25973510742188 Y148.83392333984375 ; Draw line
G0 X240.25973510742188 Y148.83392333984375 ; Move to start
G1 X240.46322631835938 Y147.27955627441406 ; Draw line
G0 X240.46322631835938 Y147.27955627441406 ; Move to start
G1 X240.5216064453125 Y147.07777404785156 ; Draw line
G0 X240.5216064453125 Y147.07777404785156 ; Move to start
G1 X240.7753143310547 Y145.31167602539062 ; Draw line
G0 X240.7753143310547 Y145.31167602539062 ; Move to start
G1 X240.9642333984375 Y144.75730895996094 ; Draw line
G0 X240.9642333984375 Y144.75730895996094 ; Move to start
G1 X241.1982421875 Y143.3158721923828 ; Draw line
G0 X241.1982421875 Y143.3158721923828 ; Move to start
G1 X241.8101806640625 Y142.4611358642578 ; Draw line
G0 X241.8101806640625 Y142.4611358642578 ; Move to start
G1 X241.87002563476562 Y142.18064880371094 ; Draw line
G0 X241.87002563476562 Y142.18064880371094 ; Move to start
G1 X241.94200134277344 Y141.9085693359375 ; Draw line
G0 X241.94200134277344 Y141.9085693359375 ; Move to start
G1 X242.1944122314453 Y141.54466247558594 ; Draw line
G0 X242.1944122314453 Y141.54466247558594 ; Move to start
G1 X242.52395629882812 Y140.58013916015625 ; Draw line
G0 X242.52395629882812 Y140.58013916015625 ; Move to start
G1 X242.67041015625 Y139.95553588867188 ; Draw line
G0 X242.67041015625 Y139.95553588867188 ; Move to start
G1 X243.10641479492188 Y138.6096649169922 ; Draw line
G0 X243.10641479492188 Y138.6096649169922 ; Move to start
G1 X243.1827392578125 Y137.9447784423828 ; Draw line
G0 X243.1827392578125 Y137.9447784423828 ; Move to start
G1 X243.2279510498047 Y137.84323120117188 ; Draw line
G0 X243.2279510498047 Y137.84323120117188 ; Move to start
G1 X243.34454345703125 Y135.99208068847656 ; Draw line
G0 X243.34454345703125 Y135.99208068847656 ; Move to start
G1 X243.5104522705078 Y135.5628662109375 ; Draw line
G0 X243.5104522705078 Y135.5628662109375 ; Move to start
G1 X243.630859375 Y134.0532989501953 ; Draw line
G0 X243.630859375 Y134.0532989501953 ; Move to start
G1 X244.232177734375 Y133.2736053466797 ; Draw line
G0 X244.232177734375 Y133.2736053466797 ; Move to start
G1 X244.2355194091797 Y133.2482452392578 ; Draw line
G0 X244.2355194091797 Y133.2482452392578 ; Move to start
G1 X244.4413299560547 Y132.24781799316406 ; Draw line
G0 X244.4413299560547 Y132.24781799316406 ; Move to start
G1 X245.08535766601562 Y130.97994995117188 ; Draw line
G0 X245.08535766601562 Y130.97994995117188 ; Move to start
G1 X245.87103271484375 Y128.94052124023438 ; Draw line
G0 X245.87103271484375 Y128.94052124023438 ; Move to start
G1 X246.02310180664062 Y128.4136199951172 ; Draw line
G0 X246.02310180664062 Y128.4136199951172 ; Move to start
G1 X246.06114196777344 Y128.3060760498047 ; Draw line
G0 X246.06114196777344 Y128.3060760498047 ; Move to start
G1 X246.5609588623047 Y126.69947052001953 ; Draw line
G0 X246.5609588623047 Y126.69947052001953 ; Move to start
G1 X246.862060546875 Y125.89547729492188 ; Draw line
G0 X246.862060546875 Y125.89547729492188 ; Move to start
G1 X246.91851806640625 Y125.55848693847656 ; Draw line
G0 X246.91851806640625 Y125.55848693847656 ; Move to start
G1 X247.058837890625 Y124.94952392578125 ; Draw line
G0 X247.058837890625 Y124.94952392578125 ; Move to start
G1 X247.75062561035156 Y123.10130310058594 ; Draw line
G0 X247.75062561035156 Y123.10130310058594 ; Move to start
G1 X248.74911499023438 Y121.11041259765625 ; Draw line
G0 X248.74911499023438 Y121.11041259765625 ; Move to start
G1 X248.84255981445312 Y120.8062515258789 ; Draw line
G0 X248.84255981445312 Y120.8062515258789 ; Move to start
G1 X248.87811279296875 Y120.71180725097656 ; Draw line
G0 X248.87811279296875 Y120.71180725097656 ; Move to start
G1 X249.28904724121094 Y118.97126007080078 ; Draw line
G0 X249.28904724121094 Y118.97126007080078 ; Move to start
G1 X249.5465545654297 Y118.13097381591797 ; Draw line
G0 X249.5465545654297 Y118.13097381591797 ; Move to start
G1 X249.531005859375 Y117.39196014404297 ; Draw line
G0 X249.531005859375 Y117.39196014404297 ; Move to start
G1 X249.6685791015625 Y116.48103332519531 ; Draw line
G0 X249.6685791015625 Y116.48103332519531 ; Move to start
G1 X250.4012451171875 Y115.54649353027344 ; Draw line
G0 X250.4012451171875 Y115.54649353027344 ; Move to start
G1 X250.61219787597656 Y115.1219482421875 ; Draw line
G0 X250.61219787597656 Y115.1219482421875 ; Move to start
G1 X251.62301635742188 Y113.34693908691406 ; Draw line
G0 X251.62301635742188 Y113.34693908691406 ; Move to start
G1 X251.63571166992188 Y113.23571014404297 ; Draw line
G0 X251.63571166992188 Y113.23571014404297 ; Move to start
G1 X251.64996337890625 Y113.21326446533203 ; Draw line
G0 X251.64996337890625 Y113.21326446533203 ; Move to start
G1 X251.72109985351562 Y113.0640869140625 ; Draw line
G0 X251.72109985351562 Y113.0640869140625 ; Move to start
G1 X252.02398681640625 Y111.91969299316406 ; Draw line
G0 X252.02398681640625 Y111.91969299316406 ; Move to start
G1 X252.19790649414062 Y111.53121948242188 ; Draw line
G0 X252.19790649414062 Y111.53121948242188 ; Move to start
G1 X252.45838928222656 Y110.43983459472656 ; Draw line
G0 X252.45838928222656 Y110.43983459472656 ; Move to start
G1 X252.52586364746094 Y109.79902648925781 ; Draw line
G0 X252.52586364746094 Y109.79902648925781 ; Move to start
G1 X252.5945281982422 Y109.32560729980469 ; Draw line
G0 X252.5945281982422 Y109.32560729980469 ; Move to start
G1 X252.9036102294922 Y108.14170837402344 ; Draw line
G0 X252.9036102294922 Y108.14170837402344 ; Move to start
G1 X253.81790161132812 Y106.4410400390625 ; Draw line
G0 X253.81790161132812 Y106.4410400390625 ; Move to start
G1 X253.880126953125 Y105.65560913085938 ; Draw line
G0 X253.880126953125 Y105.65560913085938 ; Move to start
G1 X253.96307373046875 Y105.28902435302734 ; Draw line
G0 X253.96307373046875 Y105.28902435302734 ; Move to start
G1 X254.4735565185547 Y103.84624481201172 ; Draw line
G0 X254.4735565185547 Y103.84624481201172 ; Move to start
G1 X254.53500366210938 Y103.55258178710938 ; Draw line
G0 X254.53500366210938 Y103.55258178710938 ; Move to start
G1 X254.86996459960938 Y102.71194458007812 ; Draw line
G0 X254.86996459960938 Y102.71194458007812 ; Move to start
G1 X254.95993041992188 Y102.09817504882812 ; Draw line
G0 X254.95993041992188 Y102.09817504882812 ; Move to start
G1 X255.04693603515625 Y101.1586685180664 ; Draw line
G0 X255.04693603515625 Y101.1586685180664 ; Move to start
G1 X255.13177490234375 Y100.51142883300781 ; Draw line
G0 X255.13177490234375 Y100.51142883300781 ; Move to start
G1 X255.14060974121094 Y100.42440795898438 ; Draw line
G0 X255.14060974121094 Y100.42440795898438 ; Move to start
G1 X255.2150421142578 Y99.11341857910156 ; Draw line
G0 X255.2150421142578 Y99.11341857910156 ; Move to start
G1 X255.17984008789062 Y98.13636779785156 ; Draw line
G0 X255.17984008789062 Y98.13636779785156 ; Move to start
G1 X255.53558349609375 Y97.80023956298828 ; Draw line
G0 X255.53558349609375 Y97.80023956298828 ; Move to start
G1 X256.2509765625 Y96.31585693359375 ; Draw line
G0 X256.2509765625 Y96.31585693359375 ; Move to start
G1 X256.2627868652344 Y96.2895736694336 ; Draw line
G0 X256.2627868652344 Y96.2895736694336 ; Move to start
G1 X256.393798828125 Y95.0962142944336 ; Draw line
G0 X256.393798828125 Y95.0962142944336 ; Move to start
G1 X256.49542236328125 Y94.83732604980469 ; Draw line
G0 X256.49542236328125 Y94.83732604980469 ; Move to start
G1 X256.59906005859375 Y94.58822631835938 ; Draw line
G0 X256.59906005859375 Y94.58822631835938 ; Move to start
G1 X256.8624572753906 Y93.64842224121094 ; Draw line
G0 X256.8624572753906 Y93.64842224121094 ; Move to start
G1 X256.85565185546875 Y93.59857177734375 ; Draw line
G0 X256.85565185546875 Y93.59857177734375 ; Move to start
G1 X256.89678955078125 Y92.8739013671875 ; Draw line
G0 X256.89678955078125 Y92.8739013671875 ; Move to start
G1 X257.47625732421875 Y91.67405700683594 ; Draw line
G0 X257.47625732421875 Y91.67405700683594 ; Move to start
G1 X257.67755126953125 Y91.4713363647461 ; Draw line
G0 X257.67755126953125 Y91.4713363647461 ; Move to start
G1 X258.36566162109375 Y90.16268157958984 ; Draw line
G0 X258.36566162109375 Y90.16268157958984 ; Move to start
G1 X258.4042663574219 Y89.99345397949219 ; Draw line
G0 X258.4042663574219 Y89.99345397949219 ; Move to start
G1 X258.42022705078125 Y89.96238708496094 ; Draw line
G0 X258.42022705078125 Y89.96238708496094 ; Move to start
G1 X258.02752685546875 Y89.14912414550781 ; Draw line
G0 X258.02752685546875 Y89.14912414550781 ; Move to start
G1 X258.95556640625 Y88.30487060546875 ; Draw line
G0 X258.95556640625 Y88.30487060546875 ; Move to start
G1 X258.9864807128906 Y88.01934814453125 ; Draw line
G0 X258.9864807128906 Y88.01934814453125 ; Move to start
G1 X259.35211181640625 Y86.320556640625 ; Draw line
G0 X259.35211181640625 Y86.320556640625 ; Move to start
G1 X259.70953369140625 Y85.62744140625 ; Draw line
G0 X259.70953369140625 Y85.62744140625 ; Move to start
G1 X259.96685791015625 Y84.49868774414062 ; Draw line
G0 X259.96685791015625 Y84.49868774414062 ; Move to start
G1 X260.46063232421875 Y83.19119262695312 ; Draw line
G0 X260.46063232421875 Y83.19119262695312 ; Move to start
G1 X260.486572265625 Y83.0230712890625 ; Draw line
G0 X260.486572265625 Y83.0230712890625 ; Move to start
G1 X260.49127197265625 Y82.95022583007812 ; Draw line
G0 X260.49127197265625 Y82.95022583007812 ; Move to start
G1 X260.49517822265625 Y82.82908630371094 ; Draw line
G0 X260.49517822265625 Y82.82908630371094 ; Move to start
G1 X260.59112548828125 Y81.38592529296875 ; Draw line
G0 X260.59112548828125 Y81.38592529296875 ; Move to start
G1 X260.59307861328125 Y80.40831756591797 ; Draw line
G0 X260.59307861328125 Y80.40831756591797 ; Move to start
G1 X260.466796875 Y78.65084838867188 ; Draw line
G0 X260.466796875 Y78.65084838867188 ; Move to start
G1 X260.4620666503906 Y78.63114166259766 ; Draw line
G0 X260.4620666503906 Y78.63114166259766 ; Move to start
G1 X260.4679260253906 Y78.61456298828125 ; Draw line
G0 X260.4679260253906 Y78.61456298828125 ; Move to start
G1 X260.46197509765625 Y78.46976470947266 ; Draw line
G0 X260.46197509765625 Y78.46976470947266 ; Move to start
G1 X260.2763366699219 Y76.71768951416016 ; Draw line
G0 X260.2763366699219 Y76.71768951416016 ; Move to start
G1 X260.2060852050781 Y76.29497528076172 ; Draw line
G0 X260.2060852050781 Y76.29497528076172 ; Move to start
G1 X260.4078063964844 Y75.59765625 ; Draw line
G0 X260.4078063964844 Y75.59765625 ; Move to start
G1 X260.4698486328125 Y74.90765380859375 ; Draw line
G0 X260.4698486328125 Y74.90765380859375 ; Move to start
G1 X260.5411682128906 Y74.65272521972656 ; Draw line
G0 X260.5411682128906 Y74.65272521972656 ; Move to start
G1 X260.41961669921875 Y74.20382690429688 ; Draw line
G0 X260.41961669921875 Y74.20382690429688 ; Move to start
G1 X260.5426025390625 Y73.34782409667969 ; Draw line
G0 X260.5426025390625 Y73.34782409667969 ; Move to start
G1 X260.874267578125 Y72.51703643798828 ; Draw line
G0 X260.874267578125 Y72.51703643798828 ; Move to start
G1 X260.989990234375 Y71.99851989746094 ; Draw line
G0 X260.989990234375 Y71.99851989746094 ; Move to start
G1 X261.14892578125 Y70.92493438720703 ; Draw line
G0 X261.14892578125 Y70.92493438720703 ; Move to start
G1 X261.26434326171875 Y70.5236587524414 ; Draw line
G0 X261.26434326171875 Y70.5236587524414 ; Move to start
G1 X261.3783264160156 Y69.35627746582031 ; Draw line
G0 X261.3783264160156 Y69.35627746582031 ; Move to start
G1 X261.5130615234375 Y68.85102081298828 ; Draw line
G0 X261.5130615234375 Y68.85102081298828 ; Move to start
G1 X261.49151611328125 Y68.42828369140625 ; Draw line
G0 X261.49151611328125 Y68.42828369140625 ; Move to start
G1 X261.583251953125 Y67.58039093017578 ; Draw line
G0 X261.583251953125 Y67.58039093017578 ; Move to start
G1 X261.87445068359375 Y66.92615509033203 ; Draw line
G0 X261.87445068359375 Y66.92615509033203 ; Move to start
G1 X262.2288818359375 Y65.34585571289062 ; Draw line
G0 X262.2288818359375 Y65.34585571289062 ; Move to start
G1 X262.70855712890625 Y64.65352630615234 ; Draw line
G0 X262.70855712890625 Y64.65352630615234 ; Move to start
G1 X263.65106201171875 Y62.99060821533203 ; Draw line
G0 X263.65106201171875 Y62.99060821533203 ; Move to start
G1 X263.8094177246094 Y62.637550354003906 ; Draw line
G0 X263.8094177246094 Y62.637550354003906 ; Move to start
G1 X263.8815002441406 Y62.486602783203125 ; Draw line
G0 X263.8815002441406 Y62.486602783203125 ; Move to start
G1 X265.15191650390625 Y60.14509582519531 ; Draw line
G0 X265.15191650390625 Y60.14509582519531 ; Move to start
G1 X265.3190002441406 Y59.85559844970703 ; Draw line
G0 X265.3190002441406 Y59.85559844970703 ; Move to start
G1 X265.760009765625 Y59.006370544433594 ; Draw line
G0 X265.760009765625 Y59.006370544433594 ; Move to start
G1 X266.1002502441406 Y58.06452941894531 ; Draw line
G0 X266.1002502441406 Y58.06452941894531 ; Move to start
G1 X266.1854248046875 Y57.761268615722656 ; Draw line
G0 X266.1854248046875 Y57.761268615722656 ; Move to start
G1 X266.20703125 Y57.61039733886719 ; Draw line
G0 X266.20703125 Y57.61039733886719 ; Move to start
G1 X266.8780212402344 Y55.17888641357422 ; Draw line
G0 X266.8780212402344 Y55.17888641357422 ; Move to start
G1 X266.86907958984375 Y55.130340576171875 ; Draw line
G0 X266.86907958984375 Y55.130340576171875 ; Move to start
G1 X266.947998046875 Y52.68565368652344 ; Draw line
G0 X266.947998046875 Y52.68565368652344 ; Move to start
G1 X266.93701171875 Y52.649696350097656 ; Draw line
G0 X266.93701171875 Y52.649696350097656 ; Move to start
G1 X266.2697448730469 Y50.7421875 ; Draw line
G0 X266.2697448730469 Y50.7421875 ; Move to start
G1 X265.26812744140625 Y50.019004821777344 ; Draw line
G0 X265.26812744140625 Y50.019004821777344 ; Move to start
G1 X264.5242919921875 Y49.49175262451172 ; Draw line
G0 X264.5242919921875 Y49.49175262451172 ; Move to start
G1 X264.49383544921875 Y49.46434020996094 ; Draw line
G0 X264.49383544921875 Y49.46434020996094 ; Move to start
G1 X262.87823486328125 Y48.97722625732422 ; Draw line
G0 X262.87823486328125 Y48.97722625732422 ; Move to start
G1 X262.0028381347656 Y48.836151123046875 ; Draw line
G0 X262.0028381347656 Y48.836151123046875 ; Move to start
G1 X259.5046081542969 Y48.859291076660156 ; Draw line
G0 X259.5046081542969 Y48.859291076660156 ; Move to start
G1 X257.18975830078125 Y49.23889923095703 ; Draw line
G0 X257.18975830078125 Y49.23889923095703 ; Move to start
G1 X256.9191589355469 Y49.32128143310547 ; Draw line
G0 X256.9191589355469 Y49.32128143310547 ; Move to start
G1 X256.7691955566406 Y49.336181640625 ; Draw line
G0 X256.7691955566406 Y49.336181640625 ; Move to start
G1 X254.85055541992188 Y49.819618225097656 ; Draw line
G0 X254.85055541992188 Y49.819618225097656 ; Move to start
G1 X254.48809814453125 Y49.870460510253906 ; Draw line
G0 X254.48809814453125 Y49.870460510253906 ; Move to start
G1 X252.56878662109375 Y50.428070068359375 ; Draw line
G0 X252.56878662109375 Y50.428070068359375 ; Move to start
G1 X251.96551513671875 Y50.53681182861328 ; Draw line
G0 X251.96551513671875 Y50.53681182861328 ; Move to start
G1 X250.1085205078125 Y51.12224578857422 ; Draw line
G0 X250.1085205078125 Y51.12224578857422 ; Move to start
G1 X249.50741577148438 Y51.245445251464844 ; Draw line
G0 X249.50741577148438 Y51.245445251464844 ; Move to start
G1 X249.18875122070312 Y51.424095153808594 ; Draw line
G0 X249.18875122070312 Y51.424095153808594 ; Move to start
G1 X248.3402557373047 Y51.542633056640625 ; Draw line
G0 X248.3402557373047 Y51.542633056640625 ; Move to start
G1 X248.0448760986328 Y51.64277648925781 ; Draw line
G0 X248.0448760986328 Y51.64277648925781 ; Move to start
G1 X247.85301208496094 Y51.93397521972656 ; Draw line
G0 X247.85301208496094 Y51.93397521972656 ; Move to start
G1 X246.87420654296875 Y52.201881408691406 ; Draw line
G0 X246.87420654296875 Y52.201881408691406 ; Move to start
G1 X245.9258575439453 Y52.57353210449219 ; Draw line
G0 X245.9258575439453 Y52.57353210449219 ; Move to start
G1 X244.30125427246094 Y53.00018310546875 ; Draw line
G0 X244.30125427246094 Y53.00018310546875 ; Move to start
G1 X241.91409301757812 Y53.614166259765625 ; Draw line
G0 X241.91409301757812 Y53.614166259765625 ; Move to start
G1 X241.7702178955078 Y53.65953063964844 ; Draw line
G0 X241.7702178955078 Y53.65953063964844 ; Move to start
G1 X241.7211456298828 Y53.66857147216797 ; Draw line
G0 X241.7211456298828 Y53.66857147216797 ; Move to start
G1 X239.88836669921875 Y54.09968566894531 ; Draw line
G0 X239.88836669921875 Y54.09968566894531 ; Move to start
G1 X239.1405487060547 Y54.2003173828125 ; Draw line
G0 X239.1405487060547 Y54.2003173828125 ; Move to start
G1 X238.05743408203125 Y54.323036193847656 ; Draw line
G0 X238.05743408203125 Y54.323036193847656 ; Move to start
G1 X236.5747528076172 Y54.37312316894531 ; Draw line
G0 X236.5747528076172 Y54.37312316894531 ; Move to start
G1 X235.7874755859375 Y54.35950469970703 ; Draw line
G0 X235.7874755859375 Y54.35950469970703 ; Move to start
G1 X234.1328125 Y54.19917297363281 ; Draw line
G0 X234.1328125 Y54.19917297363281 ; Move to start
G1 X233.15182495117188 Y54.055885314941406 ; Draw line
G0 X233.15182495117188 Y54.055885314941406 ; Move to start
G1 X231.51089477539062 Y53.469757080078125 ; Draw line
G0 X231.51089477539062 Y53.469757080078125 ; Move to start
G1 X229.74322509765625 Y52.643348693847656 ; Draw line
G0 X229.74322509765625 Y52.643348693847656 ; Move to start
G1 X229.05734252929688 Y52.44242858886719 ; Draw line
G0 X229.05734252929688 Y52.44242858886719 ; Move to start
G1 X229.0417022705078 Y52.434898376464844 ; Draw line
G0 X229.0417022705078 Y52.434898376464844 ; Move to start
G1 X228.47621154785156 Y52.202178955078125 ; Draw line
G0 X228.47621154785156 Y52.202178955078125 ; Move to start
G1 X228.19549560546875 Y51.90966033935547 ; Draw line
G0 X228.19549560546875 Y51.90966033935547 ; Move to start
G1 X227.54592895507812 Y51.43193817138672 ; Draw line
G0 X227.54592895507812 Y51.43193817138672 ; Move to start
G1 X226.43032836914062 Y50.69557189941406 ; Draw line
G0 X226.43032836914062 Y50.69557189941406 ; Move to start
G1 X225.7354278564453 Y50.24778747558594 ; Draw line
G0 X225.7354278564453 Y50.24778747558594 ; Move to start
G1 X224.96023559570312 Y49.45929718017578 ; Draw line
G0 X224.96023559570312 Y49.45929718017578 ; Move to start
G1 X224.49081420898438 Y49.0633544921875 ; Draw line
G0 X224.49081420898438 Y49.0633544921875 ; Move to start
G1 X223.67974853515625 Y48.223175048828125 ; Draw line
G0 X223.67974853515625 Y48.223175048828125 ; Move to start
G1 X222.85418701171875 Y47.614105224609375 ; Draw line
G0 X222.85418701171875 Y47.614105224609375 ; Move to start
G1 X221.65296936035156 Y46.548622131347656 ; Draw line
G0 X221.65296936035156 Y46.548622131347656 ; Move to start
G1 X219.42901611328125 Y44.814109802246094 ; Draw line
G0 X219.42901611328125 Y44.814109802246094 ; Move to start
G1 X219.3302001953125 Y44.741241455078125 ; Draw line
G0 X219.3302001953125 Y44.741241455078125 ; Move to start
G1 X219.2967529296875 Y44.67182159423828 ; Draw line
G0 X219.2967529296875 Y44.67182159423828 ; Move to start
G1 X219.30564880371094 Y44.61578369140625 ; Draw line
G0 X219.30564880371094 Y44.61578369140625 ; Move to start
G1 X218.96612548828125 Y41.53599548339844 ; Draw line
G0 X218.96612548828125 Y41.53599548339844 ; Move to start
G1 X219.2692413330078 Y39.703155517578125 ; Draw line
G0 X219.2692413330078 Y39.703155517578125 ; Move to start
G1 X219.32357788085938 Y39.33807373046875 ; Draw line
G0 X219.32357788085938 Y39.33807373046875 ; Move to start
G1 X219.34921264648438 Y38.60796356201172 ; Draw line
G0 X219.34921264648438 Y38.60796356201172 ; Move to start
G1 X219.3546142578125 Y38.5849609375 ; Draw line
G0 X219.3546142578125 Y38.5849609375 ; Move to start
G1 X219.54330444335938 Y37.996978759765625 ; Draw line
G0 X219.54330444335938 Y37.996978759765625 ; Move to start
G1 X219.35726928710938 Y37.38481140136719 ; Draw line
G0 X219.35726928710938 Y37.38481140136719 ; Move to start
G1 X219.38986206054688 Y36.059059143066406 ; Draw line
G0 X219.38986206054688 Y36.059059143066406 ; Move to start
G1 X218.91522216796875 Y33.76576232910156 ; Draw line
G0 X218.91522216796875 Y33.76576232910156 ; Move to start
G1 X218.32528686523438 Y31.726455688476562 ; Draw line
G0 X218.32528686523438 Y31.726455688476562 ; Move to start
G1 X218.27694702148438 Y31.595504760742188 ; Draw line
G0 X218.27694702148438 Y31.595504760742188 ; Move to start
G1 X218.18527221679688 Y31.301185607910156 ; Draw line
G0 X218.18527221679688 Y31.301185607910156 ; Move to start
G1 X217.1243896484375 Y29.442398071289062 ; Draw line
G0 X217.1243896484375 Y29.442398071289062 ; Move to start
G1 X216.81707763671875 Y28.33392333984375 ; Draw line
G0 X216.81707763671875 Y28.33392333984375 ; Move to start
G1 X216.3953094482422 Y27.323532104492188 ; Draw line
G0 X216.3953094482422 Y27.323532104492188 ; Move to start
G1 X216.05087280273438 Y25.439842224121094 ; Draw line
G0 X216.05087280273438 Y25.439842224121094 ; Move to start
G1 X215.95095825195312 Y25.071502685546875 ; Draw line
G0 X215.95095825195312 Y25.071502685546875 ; Move to start
G1 X215.65225219726562 Y23.80699920654297 ; Draw line
G0 X215.65225219726562 Y23.80699920654297 ; Move to start
G1 X215.3769073486328 Y22.713294982910156 ; Draw line
G0 X215.3769073486328 Y22.713294982910156 ; Move to start
G1 X214.76345825195312 Y21.40601348876953 ; Draw line
G0 X214.76345825195312 Y21.40601348876953 ; Move to start
G1 X214.55621337890625 Y20.276077270507812 ; Draw line
G0 X214.55621337890625 Y20.276077270507812 ; Move to start
G1 X213.7694854736328 Y18.376014709472656 ; Draw line
G0 X213.7694854736328 Y18.376014709472656 ; Move to start
G1 X213.48944091796875 Y17.7442626953125 ; Draw line
G0 X213.48944091796875 Y17.7442626953125 ; Move to start
G1 X213.21298217773438 Y17.071197509765625 ; Draw line
G0 X213.21298217773438 Y17.071197509765625 ; Move to start
G1 X212.78564453125 Y15.5067138671875 ; Draw line
G0 X212.78564453125 Y15.5067138671875 ; Move to start
G1 X212.7654571533203 Y14.766403198242188 ; Draw line
G0 X212.7654571533203 Y14.766403198242188 ; Move to start
G1 X212.39710998535156 Y13.993484497070312 ; Draw line
G0 X212.39710998535156 Y13.993484497070312 ; Move to start
G1 X212.27369689941406 Y13.596389770507812 ; Draw line
G0 X212.27369689941406 Y13.596389770507812 ; Move to start
G1 X211.89907836914062 Y13.09393310546875 ; Draw line
G0 X211.89907836914062 Y13.09393310546875 ; Move to start
G1 X211.2191619873047 Y11.4508056640625 ; Draw line
G0 X211.2191619873047 Y11.4508056640625 ; Move to start
G1 X210.92059326171875 Y10.5076904296875 ; Draw line
G0 X210.92059326171875 Y10.5076904296875 ; Move to start
G1 X210.4921417236328 Y9.07763671875 ; Draw line
G0 X210.4921417236328 Y9.07763671875 ; Move to start
G1 X210.10183715820312 Y7.7038116455078125 ; Draw line
G0 X210.10183715820312 Y7.7038116455078125 ; Move to start
G1 X209.22723388671875 Y6.1488494873046875 ; Draw line
G0 X209.22723388671875 Y6.1488494873046875 ; Move to start
G1 X208.63418579101562 Y4.9566192626953125 ; Draw line
G0 X208.63418579101562 Y4.9566192626953125 ; Move to start
G1 X207.6352081298828 Y4.1539306640625 ; Draw line
G0 X207.6352081298828 Y4.1539306640625 ; Move to start
G1 X206.42776489257812 Y3.82952880859375 ; Draw line
G0 X206.42776489257812 Y3.82952880859375 ; Move to start
G1 X204.95921325683594 Y3.1197509765625 ; Draw line
G0 X204.95921325683594 Y3.1197509765625 ; Move to start
G1 X204.24972534179688 Y3.041748046875 ; Draw line
G0 X204.24972534179688 Y3.041748046875 ; Move to start
G1 X202.0206756591797 Y2.5102081298828125 ; Draw line
G0 X202.0206756591797 Y2.5102081298828125 ; Move to start
G1 X201.58343505859375 Y2.5090789794921875 ; Draw line
G0 X201.58343505859375 Y2.5090789794921875 ; Move to start
G1 X199.81861877441406 Y2.716339111328125 ; Draw line
G0 X199.81861877441406 Y2.716339111328125 ; Move to start
G1 X198.60211181640625 Y2.6677703857421875 ; Draw line
G0 X198.60211181640625 Y2.6677703857421875 ; Move to start
G1 X196.47177124023438 Y3.423095703125 ; Draw line
G0 X196.47177124023438 Y3.423095703125 ; Move to start
G1 X195.92791748046875 Y3.9191436767578125 ; Draw line
G0 X195.92791748046875 Y3.9191436767578125 ; Move to start
G1 X195.273681640625 Y4.3170318603515625 ; Draw line
G0 X195.273681640625 Y4.3170318603515625 ; Move to start
G1 X194.1987762451172 Y5.4328155517578125 ; Draw line
G0 X194.1987762451172 Y5.4328155517578125 ; Move to start
G1 X193.5844268798828 Y6.1274871826171875 ; Draw line
G0 X193.5844268798828 Y6.1274871826171875 ; Move to start
G1 X192.13986206054688 Y7.5604400634765625 ; Draw line
G0 X192.13986206054688 Y7.5604400634765625 ; Move to start
G1 X191.87490844726562 Y8.033645629882812 ; Draw line
G0 X191.87490844726562 Y8.033645629882812 ; Move to start
G1 X191.26617431640625 Y9.311676025390625 ; Draw line
G0 X191.26617431640625 Y9.311676025390625 ; Move to start
G1 X190.97056579589844 Y9.695999145507812 ; Draw line
G0 X190.97056579589844 Y9.695999145507812 ; Move to start
G1 X190.58799743652344 Y11.777313232421875 ; Draw line
G0 X190.58799743652344 Y11.777313232421875 ; Move to start
G1 X190.31271362304688 Y12.546249389648438 ; Draw line
G0 X190.31271362304688 Y12.546249389648438 ; Move to start
G1 X190.5077667236328 Y13.655517578125 ; Draw line
G0 X190.5077667236328 Y13.655517578125 ; Move to start
G1 X190.54660034179688 Y13.947647094726562 ; Draw line
G0 X190.54660034179688 Y13.947647094726562 ; Move to start
G1 X190.31785583496094 Y15.394424438476562 ; Draw line
G0 X190.31785583496094 Y15.394424438476562 ; Move to start
G1 X190.42002868652344 Y16.589340209960938 ; Draw line
G0 X190.42002868652344 Y16.589340209960938 ; Move to start
G1 X189.1053466796875 Y18.201568603515625 ; Draw line
G0 X189.1053466796875 Y18.201568603515625 ; Move to start
G1 X189.09765625 Y18.209449768066406 ; Draw line
G0 X189.09765625 Y18.209449768066406 ; Move to start
G1 X187.6857452392578 Y19.786605834960938 ; Draw line
G0 X187.6857452392578 Y19.786605834960938 ; Move to start
G1 X187.10406494140625 Y20.16649627685547 ; Draw line
G0 X187.10406494140625 Y20.16649627685547 ; Move to start
G1 X186.63604736328125 Y20.896041870117188 ; Draw line
G0 X186.63604736328125 Y20.896041870117188 ; Move to start
G1 X186.4477996826172 Y21.105194091796875 ; Draw line
G0 X186.4477996826172 Y21.105194091796875 ; Move to start
G1 X186.38873291015625 Y21.287193298339844 ; Draw line
G0 X186.38873291015625 Y21.287193298339844 ; Move to start
G1 X186.06546020507812 Y21.709083557128906 ; Draw line
G0 X186.06546020507812 Y21.709083557128906 ; Move to start
G1 X185.5628204345703 Y22.81432342529297 ; Draw line
G0 X185.5628204345703 Y22.81432342529297 ; Move to start
G1 X185.21340942382812 Y23.270278930664062 ; Draw line
G0 X185.21340942382812 Y23.270278930664062 ; Move to start
G1 X184.7971649169922 Y24.539901733398438 ; Draw line
G0 X184.7971649169922 Y24.539901733398438 ; Move to start
G1 X183.58880615234375 Y25.52741241455078 ; Draw line
G0 X183.58880615234375 Y25.52741241455078 ; Move to start
G1 X183.18771362304688 Y25.774024963378906 ; Draw line
G0 X183.18771362304688 Y25.774024963378906 ; Move to start
G1 X181.83433532714844 Y26.302627563476562 ; Draw line
G0 X181.83433532714844 Y26.302627563476562 ; Move to start
G1 X181.73341369628906 Y26.9013671875 ; Draw line
G0 X181.73341369628906 Y26.9013671875 ; Move to start
G1 X180.830322265625 Y27.128639221191406 ; Draw line
G0 X180.830322265625 Y27.128639221191406 ; Move to start
G1 X180.6683807373047 Y27.201324462890625 ; Draw line
G0 X180.6683807373047 Y27.201324462890625 ; Move to start
G1 X180.44618225097656 Y27.211273193359375 ; Draw line
G0 X180.44618225097656 Y27.211273193359375 ; Move to start
G1 X179.24598693847656 Y27.533065795898438 ; Draw line
G0 X179.24598693847656 Y27.533065795898438 ; Move to start
G1 X178.4800567626953 Y27.585426330566406 ; Draw line
G0 X178.4800567626953 Y27.585426330566406 ; Move to start
G1 X178.4674072265625 Y27.58429718017578 ; Draw line
G0 X178.4674072265625 Y27.58429718017578 ; Move to start
G1 X178.3500518798828 Y27.5826416015625 ; Draw line
G0 X178.3500518798828 Y27.5826416015625 ; Move to start
G1 X176.23922729492188 Y27.393592834472656 ; Draw line
G0 X176.23922729492188 Y27.393592834472656 ; Move to start
G1 X173.62457275390625 Y27.296234130859375 ; Draw line
G0 X173.62457275390625 Y27.296234130859375 ; Move to start
G1 X173.58343505859375 Y27.293296813964844 ; Draw line
G0 X173.58343505859375 Y27.293296813964844 ; Move to start
G1 X173.5598602294922 Y27.291168212890625 ; Draw line
G0 X173.5598602294922 Y27.291168212890625 ; Move to start
G1 X173.54348754882812 Y27.292564392089844 ; Draw line
G0 X173.54348754882812 Y27.292564392089844 ; Move to start
G1 X173.51776123046875 Y27.292457580566406 ; Draw line
G0 X173.51776123046875 Y27.292457580566406 ; Move to start
G1 X173.44737243652344 Y27.28057098388672 ; Draw line
G0 X173.44737243652344 Y27.28057098388672 ; Move to start
G1 X171.69464111328125 Y27.50060272216797 ; Draw line
G0 X171.69464111328125 Y27.50060272216797 ; Move to start
G1 X171.67938232421875 Y27.677169799804688 ; Draw line
G0 X171.67938232421875 Y27.677169799804688 ; Move to start
G1 X171.21591186523438 Y27.710166931152344 ; Draw line
G0 X171.21591186523438 Y27.710166931152344 ; Move to start
G1 X170.92088317871094 Y27.711639404296875 ; Draw line
G0 X170.92088317871094 Y27.711639404296875 ; Move to start
G1 X170.01657104492188 Y28.20764923095703 ; Draw line
G0 X170.01657104492188 Y28.20764923095703 ; Move to start
G1 X168.12852478027344 Y28.540000915527344 ; Draw line
G0 X168.12852478027344 Y28.540000915527344 ; Move to start
G1 X167.92591857910156 Y28.61455535888672 ; Draw line
G0 X167.92591857910156 Y28.61455535888672 ; Move to start
G1 X167.65155029296875 Y28.741233825683594 ; Draw line
G0 X167.65155029296875 Y28.741233825683594 ; Move to start
G1 X166.79847717285156 Y29.550247192382812 ; Draw line
G0 X166.79847717285156 Y29.550247192382812 ; Move to start
G1 X166.6256561279297 Y29.656517028808594 ; Draw line
G0 X166.6256561279297 Y29.656517028808594 ; Move to start
G1 X165.44183349609375 Y30.085548400878906 ; Draw line
G0 X165.44183349609375 Y30.085548400878906 ; Move to start
G1 X165.28721618652344 Y30.181053161621094 ; Draw line
G0 X165.28721618652344 Y30.181053161621094 ; Move to start
G1 X165.20083618164062 Y30.2294921875 ; Draw line
G0 X165.20083618164062 Y30.2294921875 ; Move to start
G1 X165.05764770507812 Y30.31409454345703 ; Draw line
G0 X165.05764770507812 Y30.31409454345703 ; Move to start
G1 X164.50460815429688 Y30.66326904296875 ; Draw line
G0 X164.50460815429688 Y30.66326904296875 ; Move to start
G1 X164.39987182617188 Y30.961029052734375 ; Draw line
G0 X164.39987182617188 Y30.961029052734375 ; Move to start
G1 X163.174560546875 Y31.357666015625 ; Draw line
G0 X163.174560546875 Y31.357666015625 ; Move to start
G1 X163.16807556152344 Y31.361846923828125 ; Draw line
G0 X163.16807556152344 Y31.361846923828125 ; Move to start
G1 X163.12818908691406 Y31.383575439453125 ; Draw line
G0 X163.12818908691406 Y31.383575439453125 ; Move to start
G1 X163.08702087402344 Y31.4019775390625 ; Draw line
G0 X163.08702087402344 Y31.4019775390625 ; Move to start
G1 X162.51947021484375 Y31.71527099609375 ; Draw line
G0 X162.51947021484375 Y31.71527099609375 ; Move to start
G1 X161.83351135253906 Y31.76073455810547 ; Draw line
G0 X161.83351135253906 Y31.76073455810547 ; Move to start
G1 X161.79660034179688 Y31.764610290527344 ; Draw line
G0 X161.79660034179688 Y31.764610290527344 ; Move to start
G1 X161.03273010253906 Y31.825347900390625 ; Draw line
G0 X161.03273010253906 Y31.825347900390625 ; Move to start
G1 X160.58706665039062 Y31.731338500976562 ; Draw line
G0 X160.58706665039062 Y31.731338500976562 ; Move to start
G1 X159.81179809570312 Y31.67218780517578 ; Draw line
G0 X159.81179809570312 Y31.67218780517578 ; Move to start
G1 X158.97879028320312 Y31.460067749023438 ; Draw line
G0 X158.97879028320312 Y31.460067749023438 ; Move to start
G1 X157.97268676757812 Y31.255752563476562 ; Draw line
G0 X157.97268676757812 Y31.255752563476562 ; Move to start
G1 X157.43064880371094 Y30.90911102294922 ; Draw line
G0 X157.43064880371094 Y30.90911102294922 ; Move to start
G1 X156.90342712402344 Y30.94629669189453 ; Draw line
G0 X156.90342712402344 Y30.94629669189453 ; Move to start
G1 X156.748779296875 Y30.901893615722656 ; Draw line
G0 X156.748779296875 Y30.901893615722656 ; Move to start
G1 X156.28050231933594 Y30.418853759765625 ; Draw line
G0 X156.28050231933594 Y30.418853759765625 ; Move to start
G1 X155.38198852539062 Y30.159072875976562 ; Draw line
G0 X155.38198852539062 Y30.159072875976562 ; Move to start
G1 X154.13121032714844 Y30.013641357421875 ; Draw line
G0 X154.13121032714844 Y30.013641357421875 ; Move to start
G1 X153.85284423828125 Y29.922576904296875 ; Draw line
G0 X153.85284423828125 Y29.922576904296875 ; Move to start
G1 X153.5370635986328 Y29.841644287109375 ; Draw line
G0 X153.5370635986328 Y29.841644287109375 ; Move to start
G1 X152.37765502929688 Y29.439956665039062 ; Draw line
G0 X152.37765502929688 Y29.439956665039062 ; Move to start
G1 X151.48330688476562 Y29.409164428710938 ; Draw line
G0 X151.48330688476562 Y29.409164428710938 ; Move to start
G1 X151.3958740234375 Y29.39605712890625 ; Draw line
G0 X151.3958740234375 Y29.39605712890625 ; Move to start
G1 X148.8535919189453 Y29.167617797851562 ; Draw line
G0 X148.8535919189453 Y29.167617797851562 ; Move to start
G1 X148.64093017578125 Y29.216583251953125 ; Draw line
G0 X148.64093017578125 Y29.216583251953125 ; Move to start
G1 X148.27828979492188 Y29.00732421875 ; Draw line
G0 X148.27828979492188 Y29.00732421875 ; Move to start
G1 X147.13319396972656 Y29.174156188964844 ; Draw line
G0 X147.13319396972656 Y29.174156188964844 ; Move to start
G1 X145.88914489746094 Y28.752235412597656 ; Draw line
G0 X145.88914489746094 Y28.752235412597656 ; Move to start
G1 X145.69224548339844 Y28.910995483398438 ; Draw line
G0 X145.69224548339844 Y28.910995483398438 ; Move to start
G1 X145.53271484375 Y28.824661254882812 ; Draw line
G0 X145.53271484375 Y28.824661254882812 ; Move to start
G1 X145.4028778076172 Y28.885780334472656 ; Draw line
G0 X145.4028778076172 Y28.885780334472656 ; Move to start
G1 X143.0736541748047 Y28.973915100097656 ; Draw line
G0 X143.0736541748047 Y28.973915100097656 ; Move to start
G1 X142.5138397216797 Y29.075469970703125 ; Draw line
G0 X142.5138397216797 Y29.075469970703125 ; Move to start
G1 X140.70790100097656 Y28.505645751953125 ; Draw line
G0 X140.70790100097656 Y28.505645751953125 ; Move to start
G1 X140.40708923339844 Y28.471656799316406 ; Draw line
G0 X140.40708923339844 Y28.471656799316406 ; Move to start
G1 X138.073486328125 Y27.928489685058594 ; Draw line
G0 X138.073486328125 Y27.928489685058594 ; Move to start
G1 X137.92922973632812 Y27.881141662597656 ; Draw line
G0 X137.92922973632812 Y27.881141662597656 ; Move to start
G1 X137.21400451660156 Y27.79918670654297 ; Draw line
G0 X137.21400451660156 Y27.79918670654297 ; Move to start
G1 X136.5989532470703 Y27.83458709716797 ; Draw line
G0 X136.5989532470703 Y27.83458709716797 ; Move to start
G1 X135.53805541992188 Y28.73871612548828 ; Draw line
G0 X135.53805541992188 Y28.73871612548828 ; Move to start
G1 X135.19601440429688 Y28.78307342529297 ; Draw line
G0 X135.19601440429688 Y28.78307342529297 ; Move to start
G1 X134.78953552246094 Y28.069244384765625 ; Draw line
G0 X134.78953552246094 Y28.069244384765625 ; Move to start
G1 X134.679443359375 Y28.11053466796875 ; Draw line
G0 X134.679443359375 Y28.11053466796875 ; Move to start
G1 X134.03717041015625 Y28.24683380126953 ; Draw line
G0 X134.03717041015625 Y28.24683380126953 ; Move to start
G1 X131.87060546875 Y28.940086364746094 ; Draw line
G0 X131.87060546875 Y28.940086364746094 ; Move to start
G1 X131.51988220214844 Y29.007408142089844 ; Draw line
G0 X131.51988220214844 Y29.007408142089844 ; Move to start
G1 X130.571044921875 Y29.247215270996094 ; Draw line
G0 X130.571044921875 Y29.247215270996094 ; Move to start
G1 X129.0281219482422 Y29.52552032470703 ; Draw line
G0 X129.0281219482422 Y29.52552032470703 ; Move to start
G1 X128.0634765625 Y29.909683227539062 ; Draw line
G0 X128.0634765625 Y29.909683227539062 ; Move to start
G1 X127.21929931640625 Y30.339141845703125 ; Draw line
G0 X127.21929931640625 Y30.339141845703125 ; Move to start
G1 X126.50979614257812 Y30.53362274169922 ; Draw line
G0 X126.50979614257812 Y30.53362274169922 ; Move to start
G1 X125.44274139404297 Y30.652442932128906 ; Draw line
G0 X125.44274139404297 Y30.652442932128906 ; Move to start
G1 X124.94678497314453 Y30.598731994628906 ; Draw line
G0 X124.94678497314453 Y30.598731994628906 ; Move to start
G1 X124.65172576904297 Y30.70313262939453 ; Draw line
G0 X124.65172576904297 Y30.70313262939453 ; Move to start
G1 X124.18988037109375 Y30.46532440185547 ; Draw line
G0 X124.18988037109375 Y30.46532440185547 ; Move to start
G1 X122.90432739257812 Y30.236961364746094 ; Draw line
G0 X122.90432739257812 Y30.236961364746094 ; Move to start
G1 X122.8577880859375 Y30.23381805419922 ; Draw line
G0 X122.8577880859375 Y30.23381805419922 ; Move to start
G1 X122.66515350341797 Y30.178192138671875 ; Draw line
G0 X122.66515350341797 Y30.178192138671875 ; Move to start
G1 X120.8941650390625 Y29.76654815673828 ; Draw line
G0 X120.8941650390625 Y29.76654815673828 ; Move to start
G1 X120.73807525634766 Y29.725318908691406 ; Draw line
G0 X120.73807525634766 Y29.725318908691406 ; Move to start
G1 X120.63243865966797 Y29.73578643798828 ; Draw line
G0 X120.63243865966797 Y29.73578643798828 ; Move to start
G1 X120.5067367553711 Y29.65782928466797 ; Draw line
G0 X120.5067367553711 Y29.65782928466797 ; Move to start
G1 X120.12528228759766 Y29.541778564453125 ; Draw line
G0 X120.12528228759766 Y29.541778564453125 ; Move to start
G1 X118.25827026367188 Y29.0784912109375 ; Draw line
G0 X118.25827026367188 Y29.0784912109375 ; Move to start
G1 X115.99140930175781 Y28.32427978515625 ; Draw line
G0 X115.99140930175781 Y28.32427978515625 ; Move to start
G1 X115.626220703125 Y28.192291259765625 ; Draw line
G0 X115.626220703125 Y28.192291259765625 ; Move to start
G1 X114.80265808105469 Y27.965721130371094 ; Draw line
G0 X114.80265808105469 Y27.965721130371094 ; Move to start
G1 X113.45169830322266 Y27.730857849121094 ; Draw line
G0 X113.45169830322266 Y27.730857849121094 ; Move to start
G1 X113.09892272949219 Y27.736793518066406 ; Draw line
G0 X113.09892272949219 Y27.736793518066406 ; Move to start
G1 X110.19125366210938 Y27.461990356445312 ; Draw line
G0 X110.19125366210938 Y27.461990356445312 ; Move to start
G1 X110.035888671875 Y27.454002380371094 ; Draw line
G0 X110.035888671875 Y27.454002380371094 ; Move to start
G1 X110.00902557373047 Y27.45477294921875 ; Draw line
G0 X110.00902557373047 Y27.45477294921875 ; Move to start
G1 X109.03663635253906 Y27.65802001953125 ; Draw line
G0 X109.03663635253906 Y27.65802001953125 ; Move to start
G1 X107.32472229003906 Y28.027816772460938 ; Draw line
G0 X107.32472229003906 Y28.027816772460938 ; Move to start
G1 X107.30447387695312 Y28.038223266601562 ; Draw line
G0 X107.30447387695312 Y28.038223266601562 ; Move to start
G1 X107.29121398925781 Y28.047805786132812 ; Draw line
G0 X107.29121398925781 Y28.047805786132812 ; Move to start
G1 X105.8123779296875 Y28.679237365722656 ; Draw line
G0 X105.8123779296875 Y28.679237365722656 ; Move to start
G1 X105.6676254272461 Y28.77770233154297 ; Draw line
G0 X105.6676254272461 Y28.77770233154297 ; Move to start
G1 X104.3572769165039 Y29.801063537597656 ; Draw line
G0 X104.3572769165039 Y29.801063537597656 ; Move to start
G1 X104.16899871826172 Y29.891281127929688 ; Draw line
G0 X104.16899871826172 Y29.891281127929688 ; Move to start
G1 X102.99201965332031 Y31.14068603515625 ; Draw line
G0 X102.99201965332031 Y31.14068603515625 ; Move to start
G1 X102.5684814453125 Y31.490829467773438 ; Draw line
G0 X102.5684814453125 Y31.490829467773438 ; Move to start
G1 X102.53487396240234 Y31.523094177246094 ; Draw line
G0 X102.53487396240234 Y31.523094177246094 ; Move to start
G1 X102.22994995117188 Y31.72985076904297 ; Draw line
G0 X102.22994995117188 Y31.72985076904297 ; Move to start
G1 X101.27838134765625 Y32.61589050292969 ; Draw line
G0 X101.27838134765625 Y32.61589050292969 ; Move to start
G1 X100.07998657226562 Y33.41789245605469 ; Draw line
G0 X100.07998657226562 Y33.41789245605469 ; Move to start
G1 X99.27902221679688 Y33.77409362792969 ; Draw line
G0 X99.27902221679688 Y33.77409362792969 ; Move to start
G1 X99.25215148925781 Y33.78765869140625 ; Draw line
G0 X99.25215148925781 Y33.78765869140625 ; Move to start
G1 X98.79899597167969 Y33.95508575439453 ; Draw line
G0 X98.79899597167969 Y33.95508575439453 ; Move to start
G1 X97.96260833740234 Y34.379425048828125 ; Draw line
G0 X97.96260833740234 Y34.379425048828125 ; Move to start
G1 X96.92884826660156 Y34.91944122314453 ; Draw line
G0 X96.92884826660156 Y34.91944122314453 ; Move to start
G1 X96.4438705444336 Y35.13922119140625 ; Draw line
G0 X96.4438705444336 Y35.13922119140625 ; Move to start
G1 X94.22953033447266 Y36.57511901855469 ; Draw line
G0 X94.22953033447266 Y36.57511901855469 ; Move to start
G1 X93.11920166015625 Y37.35188293457031 ; Draw line
G0 X93.11920166015625 Y37.35188293457031 ; Move to start
G1 X92.7376708984375 Y37.53820037841797 ; Draw line
G0 X92.7376708984375 Y37.53820037841797 ; Move to start
G1 X92.24951171875 Y37.846824645996094 ; Draw line
G0 X92.24951171875 Y37.846824645996094 ; Move to start
G1 X91.61691284179688 Y38.202545166015625 ; Draw line
G0 X91.61691284179688 Y38.202545166015625 ; Move to start
G1 X90.04119110107422 Y38.887939453125 ; Draw line
G0 X90.04119110107422 Y38.887939453125 ; Move to start
G1 X89.92913818359375 Y38.92267608642578 ; Draw line
G0 X89.92913818359375 Y38.92267608642578 ; Move to start
G1 X88.12553405761719 Y39.164710998535156 ; Draw line
G0 X88.12553405761719 Y39.164710998535156 ; Move to start
G1 X87.5303955078125 Y39.24388885498047 ; Draw line
G0 X87.5303955078125 Y39.24388885498047 ; Move to start
G1 X85.39446258544922 Y39.24693298339844 ; Draw line
G0 X85.39446258544922 Y39.24693298339844 ; Move to start
G1 X85.05551147460938 Y39.233612060546875 ; Draw line
G0 X85.05551147460938 Y39.233612060546875 ; Move to start
G1 X83.2245101928711 Y39.194252014160156 ; Draw line
G0 X83.2245101928711 Y39.194252014160156 ; Move to start
G1 X82.57379150390625 Y39.14317321777344 ; Draw line
G0 X82.57379150390625 Y39.14317321777344 ; Move to start
G1 X81.061767578125 Y39.081886291503906 ; Draw line
G0 X81.061767578125 Y39.081886291503906 ; Move to start
G1 X80.08868408203125 Y38.97667694091797 ; Draw line
G0 X80.08868408203125 Y38.97667694091797 ; Move to start
G1 X78.88480377197266 Y38.913475036621094 ; Draw line
G0 X78.88480377197266 Y38.913475036621094 ; Move to start
G1 X77.60067749023438 Y38.753562927246094 ; Draw line
G0 X77.60067749023438 Y38.753562927246094 ; Move to start
G1 X76.64773559570312 Y38.73118591308594 ; Draw line
G0 X76.64773559570312 Y38.73118591308594 ; Move to start
G1 X75.11029052734375 Y38.54492950439453 ; Draw line
G0 X75.11029052734375 Y38.54492950439453 ; Move to start
G1 X74.26406860351562 Y38.614830017089844 ; Draw line
G0 X74.26406860351562 Y38.614830017089844 ; Move to start
G1 X72.61863708496094 Y38.511627197265625 ; Draw line
G0 X72.61863708496094 Y38.511627197265625 ; Move to start
G1 X71.62923431396484 Y38.73011016845703 ; Draw line
G0 X71.62923431396484 Y38.73011016845703 ; Move to start
G1 X70.12670135498047 Y38.794898986816406 ; Draw line
G0 X70.12670135498047 Y38.794898986816406 ; Move to start
G1 X68.91948699951172 Y39.197021484375 ; Draw line
G0 X68.91948699951172 Y39.197021484375 ; Move to start
G1 X67.73198699951172 Y39.38645935058594 ; Draw line
G0 X67.73198699951172 Y39.38645935058594 ; Move to start
G1 X65.40057373046875 Y40.243316650390625 ; Draw line
G0 X65.40057373046875 Y40.243316650390625 ; Move to start
G1 X65.13347625732422 Y40.3743896484375 ; Draw line
G0 X65.13347625732422 Y40.3743896484375 ; Move to start
G1 X64.87468719482422 Y40.49137878417969 ; Draw line
G0 X64.87468719482422 Y40.49137878417969 ; Move to start
G1 X62.65083312988281 Y41.30963897705078 ; Draw line
G0 X62.65083312988281 Y41.30963897705078 ; Move to start
G1 X61.01781463623047 Y41.856300354003906 ; Draw line
G0 X61.01781463623047 Y41.856300354003906 ; Move to start
G1 X60.15887451171875 Y42.05957794189453 ; Draw line
G0 X60.15887451171875 Y42.05957794189453 ; Move to start
G1 X57.88440704345703 Y42.715232849121094 ; Draw line
G0 X57.88440704345703 Y42.715232849121094 ; Move to start
G1 X57.66691589355469 Y42.79174041748047 ; Draw line
G0 X57.66691589355469 Y42.79174041748047 ; Move to start
G1 X57.392425537109375 Y42.989715576171875 ; Draw line
G0 X57.392425537109375 Y42.989715576171875 ; Move to start
G1 X55.174957275390625 Y44.369178771972656 ; Draw line
G0 X55.174957275390625 Y44.369178771972656 ; Move to start
G1 X54.811683654785156 Y45.207191467285156 ; Draw line
G0 X54.811683654785156 Y45.207191467285156 ; Move to start
G1 X54.838401794433594 Y45.69982147216797 ; Draw line
G0 X54.838401794433594 Y45.69982147216797 ; Move to start
G1 X54.41918182373047 Y47.69915771484375 ; Draw line
G0 X54.41918182373047 Y47.69915771484375 ; Move to start
G1 X54.64513397216797 Y48.328102111816406 ; Draw line
G0 X54.64513397216797 Y48.328102111816406 ; Move to start
G1 X54.81233215332031 Y49.93791961669922 ; Draw line
G0 X54.81233215332031 Y49.93791961669922 ; Move to start
G1 X54.93135070800781 Y49.999610900878906 ; Draw line
G0 X54.93135070800781 Y49.999610900878906 ; Move to start
G1 X55.02033996582031 Y50.07561492919922 ; Draw line
G0 X55.02033996582031 Y50.07561492919922 ; Move to start
G1 X55.02088165283203 Y50.12512969970703 ; Draw line
G0 X55.02088165283203 Y50.12512969970703 ; Move to start
G1 X55.09934997558594 Y50.294044494628906 ; Draw line
G0 X55.09934997558594 Y50.294044494628906 ; Move to start
G1 X55.04503631591797 Y52.369293212890625 ; Draw line
G0 X55.04503631591797 Y52.369293212890625 ; Move to start
G1 X55.05584716796875 Y52.68304443359375 ; Draw line
G0 X55.05584716796875 Y52.68304443359375 ; Move to start
G1 X55.054901123046875 Y52.718650817871094 ; Draw line
G0 X55.054901123046875 Y52.718650817871094 ; Move to start
G1 X55.78143310546875 Y55.36863708496094 ; Draw line
G0 X55.78143310546875 Y55.36863708496094 ; Move to start
G1 X55.80571746826172 Y55.66571044921875 ; Draw line
G0 X55.80571746826172 Y55.66571044921875 ; Move to start
G1 X55.897918701171875 Y56.33503723144531 ; Draw line
G0 X55.897918701171875 Y56.33503723144531 ; Move to start
G1 X56.278526306152344 Y57.661109924316406 ; Draw line
G0 X56.278526306152344 Y57.661109924316406 ; Move to start
G1 X57.03858947753906 Y59.987884521484375 ; Draw line
G0 X57.03858947753906 Y59.987884521484375 ; Move to start
G1 X57.106178283691406 Y60.214691162109375 ; Draw line
G0 X57.106178283691406 Y60.214691162109375 ; Move to start
G1 X57.125404357910156 Y60.24213409423828 ; Draw line
G0 X57.125404357910156 Y60.24213409423828 ; Move to start
G1 X57.138885498046875 Y60.252403259277344 ; Draw line
G0 X57.138885498046875 Y60.252403259277344 ; Move to start
G1 X57.135498046875 Y60.28926086425781 ; Draw line
G0 X57.135498046875 Y60.28926086425781 ; Move to start
G1 X57.85365295410156 Y62.47503662109375 ; Draw line
G0 X57.85365295410156 Y62.47503662109375 ; Move to start
G1 X57.850982666015625 Y62.96284484863281 ; Draw line
G0 X57.850982666015625 Y62.96284484863281 ; Move to start
G1 X58.134307861328125 Y64.00202178955078 ; Draw line
G0 X58.134307861328125 Y64.00202178955078 ; Move to start
G1 X58.355125427246094 Y65.05611419677734 ; Draw line
G0 X58.355125427246094 Y65.05611419677734 ; Move to start
G1 X58.35304260253906 Y65.48653411865234 ; Draw line
G0 X58.35304260253906 Y65.48653411865234 ; Move to start
G1 X58.576995849609375 Y67.4963607788086 ; Draw line
G0 X58.576995849609375 Y67.4963607788086 ; Move to start
G1 X58.42633056640625 Y68.1720199584961 ; Draw line
G0 X58.42633056640625 Y68.1720199584961 ; Move to start
G1 X57.95317077636719 Y69.95008850097656 ; Draw line
G0 X57.95317077636719 Y69.95008850097656 ; Move to start
G1 X57.519691467285156 Y71.21104431152344 ; Draw line
G0 X57.519691467285156 Y71.21104431152344 ; Move to start
G1 X56.94963836669922 Y72.40873718261719 ; Draw line
G0 X56.94963836669922 Y72.40873718261719 ; Move to start
G1 X56.470245361328125 Y73.41069793701172 ; Draw line
G0 X56.470245361328125 Y73.41069793701172 ; Move to start
G1 X56.289337158203125 Y73.71644592285156 ; Draw line
G0 X56.289337158203125 Y73.71644592285156 ; Move to start
G1 X56.108497619628906 Y73.9507064819336 ; Draw line
G0 X56.108497619628906 Y73.9507064819336 ; Move to start
G1 X55.10272979736328 Y74.938720703125 ; Draw line
G0 X55.10272979736328 Y74.938720703125 ; Move to start
G1 X53.92295837402344 Y76.33426666259766 ; Draw line
G0 X53.92295837402344 Y76.33426666259766 ; Move to start
G1 X53.667442321777344 Y76.65778350830078 ; Draw line
G0 X53.667442321777344 Y76.65778350830078 ; Move to start
G1 X52.89198303222656 Y77.67066955566406 ; Draw line
G0 X52.89198303222656 Y77.67066955566406 ; Move to start
G1 X52.236488342285156 Y78.53336334228516 ; Draw line
G0 X52.236488342285156 Y78.53336334228516 ; Move to start
G1 X51.723487854003906 Y79.16957092285156 ; Draw line
G0 X51.723487854003906 Y79.16957092285156 ; Move to start
G1 X51.27082824707031 Y79.7182846069336 ; Draw line
G0 X51.27082824707031 Y79.7182846069336 ; Move to start
G1 X50.748695373535156 Y80.38590240478516 ; Draw line
G0 X50.748695373535156 Y80.38590240478516 ; Move to start
G1 X50.264854431152344 Y81.01467895507812 ; Draw line
G0 X50.264854431152344 Y81.01467895507812 ; Move to start
G1 X49.49858856201172 Y81.86768341064453 ; Draw line
G0 X49.49858856201172 Y81.86768341064453 ; Move to start
G1 X48.71733856201172 Y82.70592498779297 ; Draw line
G0 X48.71733856201172 Y82.70592498779297 ; Move to start
G1 X48.366920471191406 Y83.13679504394531 ; Draw line
G0 X48.366920471191406 Y83.13679504394531 ; Move to start
G1 X47.957122802734375 Y83.64434814453125 ; Draw line
G0 X47.957122802734375 Y83.64434814453125 ; Move to start
G1 X47.14100646972656 Y84.50917053222656 ; Draw line
G0 X47.14100646972656 Y84.50917053222656 ; Move to start
G1 X46.29414367675781 Y85.39961242675781 ; Draw line
G0 X46.29414367675781 Y85.39961242675781 ; Move to start
G1 X45.9915771484375 Y85.7743148803711 ; Draw line
G0 X45.9915771484375 Y85.7743148803711 ; Move to start
G1 X45.6358642578125 Y86.1968994140625 ; Draw line
G0 X45.6358642578125 Y86.1968994140625 ; Move to start
G1 X44.760765075683594 Y87.08055877685547 ; Draw line
G0 X44.760765075683594 Y87.08055877685547 ; Move to start
G1 X43.778160095214844 Y88.03106689453125 ; Draw line
G0 X43.778160095214844 Y88.03106689453125 ; Move to start
G1 X43.50050354003906 Y88.34222412109375 ; Draw line
G0 X43.50050354003906 Y88.34222412109375 ; Move to start
G1 X43.20685577392578 Y88.64705657958984 ; Draw line
G0 X43.20685577392578 Y88.64705657958984 ; Move to start
G1 X42.263816833496094 Y89.49638366699219 ; Draw line
G0 X42.263816833496094 Y89.49638366699219 ; Move to start
G1 X41.128509521484375 Y90.51153564453125 ; Draw line
G0 X41.128509521484375 Y90.51153564453125 ; Move to start
G1 X40.88502502441406 Y90.75318908691406 ; Draw line
G0 X40.88502502441406 Y90.75318908691406 ; Move to start
G1 X40.65650177001953 Y90.97322082519531 ; Draw line
G0 X40.65650177001953 Y90.97322082519531 ; Move to start
G1 X39.642662048339844 Y91.84614562988281 ; Draw line
G0 X39.642662048339844 Y91.84614562988281 ; Move to start
G1 X38.30883026123047 Y92.92410278320312 ; Draw line
G0 X38.30883026123047 Y92.92410278320312 ; Move to start
G1 X38.121124267578125 Y93.09849548339844 ; Draw line
G0 X38.121124267578125 Y93.09849548339844 ; Move to start
G1 X37.95463562011719 Y93.24104309082031 ; Draw line
G0 X37.95463562011719 Y93.24104309082031 ; Move to start
G1 X36.873023986816406 Y94.07804870605469 ; Draw line
G0 X36.873023986816406 Y94.07804870605469 ; Move to start
G1 X35.086570739746094 Y95.35099792480469 ; Draw line
G0 X35.086570739746094 Y95.35099792480469 ; Move to start
G1 X35.03400421142578 Y95.39193725585938 ; Draw line
G0 X35.03400421142578 Y95.39193725585938 ; Move to start
G1 X34.99480438232422 Y95.42074584960938 ; Draw line
G0 X34.99480438232422 Y95.42074584960938 ; Move to start
G1 X34.94068145751953 Y95.45632934570312 ; Draw line
G0 X34.94068145751953 Y95.45632934570312 ; Move to start
G1 X32.81291198730469 Y96.79769897460938 ; Draw line
G0 X32.81291198730469 Y96.79769897460938 ; Move to start
G1 X32.80961608886719 Y96.7996826171875 ; Draw line
G0 X32.80961608886719 Y96.7996826171875 ; Move to start
G1 X32.80641174316406 Y96.80167388916016 ; Draw line
G0 X32.80641174316406 Y96.80167388916016 ; Move to start
G1 X30.176483154296875 Y98.19288635253906 ; Draw line
G0 X30.176483154296875 Y98.19288635253906 ; Move to start
G1 X30.1431884765625 Y98.21150207519531 ; Draw line
G0 X30.1431884765625 Y98.21150207519531 ; Move to start
G1 X30.11968994140625 Y98.223388671875 ; Draw line
G0 X30.11968994140625 Y98.223388671875 ; Move to start
G1 X30.07799530029297 Y98.24060821533203 ; Draw line
G0 X30.07799530029297 Y98.24060821533203 ; Move to start
G1 X27.871124267578125 Y99.26751708984375 ; Draw line
G0 X27.871124267578125 Y99.26751708984375 ; Move to start
G1 X27.84820556640625 Y99.279541015625 ; Draw line
G0 X27.84820556640625 Y99.279541015625 ; Move to start
G1 X27.647117614746094 Y99.36817932128906 ; Draw line
G0 X27.647117614746094 Y99.36817932128906 ; Move to start
G1 X25.0821533203125 Y100.5194091796875 ; Draw line
G0 X25.0821533203125 Y100.5194091796875 ; Move to start
G1 X24.918067932128906 Y100.5877685546875 ; Draw line
G0 X24.918067932128906 Y100.5877685546875 ; Move to start
G1 X24.666854858398438 Y100.68565368652344 ; Draw line
G0 X24.666854858398438 Y100.68565368652344 ; Move to start
G1 X22.865806579589844 Y101.43637084960938 ; Draw line
G0 X22.865806579589844 Y101.43637084960938 ; Move to start
G1 X22.58849334716797 Y101.55148315429688 ; Draw line
G0 X22.58849334716797 Y101.55148315429688 ; Move to start
G1 X20.5906982421875 Y102.35295104980469 ; Draw line
G0 X20.5906982421875 Y102.35295104980469 ; Move to start
G1 X20.309532165527344 Y102.47006225585938 ; Draw line
G0 X20.309532165527344 Y102.47006225585938 ; Move to start
G1 X20.28754425048828 Y102.47845458984375 ; Draw line
G0 X20.28754425048828 Y102.47845458984375 ; Move to start
G1 X18.100494384765625 Y103.3965835571289 ; Draw line
G0 X18.100494384765625 Y103.3965835571289 ; Move to start
G1 X18.018409729003906 Y103.42681884765625 ; Draw line
G0 X18.018409729003906 Y103.42681884765625 ; Move to start
G1 X17.92383575439453 Y103.49363708496094 ; Draw line
G0 X17.92383575439453 Y103.49363708496094 ; Move to start
G1 X17.779808044433594 Y103.54117584228516 ; Draw line
G0 X17.779808044433594 Y103.54117584228516 ; Move to start
G1 X15.296661376953125 Y104.8663330078125 ; Draw line
G0 X15.296661376953125 Y104.8663330078125 ; Move to start
G1 X15.217483520507812 Y104.91668701171875 ; Draw line
G0 X15.217483520507812 Y104.91668701171875 ; Move to start
G1 X14.995025634765625 Y105.03919982910156 ; Draw line
G0 X14.995025634765625 Y105.03919982910156 ; Move to start
G1 X12.805549621582031 Y106.41014099121094 ; Draw line
G0 X12.805549621582031 Y106.41014099121094 ; Move to start
G1 X12.465164184570312 Y106.6388931274414 ; Draw line
G0 X12.465164184570312 Y106.6388931274414 ; Move to start
G1 X11.253013610839844 Y107.54623413085938 ; Draw line
G0 X11.253013610839844 Y107.54623413085938 ; Move to start
G1 X10.58038330078125 Y108.06356811523438 ; Draw line
G0 X10.58038330078125 Y108.06356811523438 ; Move to start
G1 X10.510910034179688 Y108.10904693603516 ; Draw line
G0 X10.510910034179688 Y108.10904693603516 ; Move to start
G1 X10.436027526855469 Y108.1938705444336 ; Draw line
G0 X10.436027526855469 Y108.1938705444336 ; Move to start
G1 X10.311798095703125 Y108.27606964111328 ; Draw line
G0 X10.311798095703125 Y108.27606964111328 ; Move to start
G1 X8.339530944824219 Y109.9760971069336 ; Draw line
G0 X8.339530944824219 Y109.9760971069336 ; Move to start
G1 X8.198387145996094 Y110.12762451171875 ; Draw line
G0 X8.198387145996094 Y110.12762451171875 ; Move to start
G1 X8.098724365234375 Y110.21582794189453 ; Draw line
G0 X8.098724365234375 Y110.21582794189453 ; Move to start
G1 X8.010421752929688 Y110.33629608154297 ; Draw line
G0 X8.010421752929688 Y110.33629608154297 ; Move to start
G1 X7.870048522949219 Y110.45552062988281 ; Draw line
G0 X7.870048522949219 Y110.45552062988281 ; Move to start
G1 X5.9072418212890625 Y112.58528137207031 ; Draw line
G0 X5.9072418212890625 Y112.58528137207031 ; Move to start
G1 X5.800575256347656 Y112.74173736572266 ; Draw line
G0 X5.800575256347656 Y112.74173736572266 ; Move to start
G1 X5.690521240234375 Y112.86599731445312 ; Draw line
G0 X5.690521240234375 Y112.86599731445312 ; Move to start
G1 X5.620063781738281 Y112.98992919921875 ; Draw line
G0 X5.620063781738281 Y112.98992919921875 ; Move to start
G1 X5.38409423828125 Y113.30088806152344 ; Draw line
G0 X5.38409423828125 Y113.30088806152344 ; Move to start
G1 X4.1999664306640625 Y114.98201751708984 ; Draw line
G0 X4.1999664306640625 Y114.98201751708984 ; Move to start
G1 X2.8729248046875 Y117.4217758178711 ; Draw line
G0 X2.8729248046875 Y117.4217758178711 ; Move to start
G1 X2.850555419921875 Y117.46054077148438 ; Draw line
G0 X2.850555419921875 Y117.46054077148438 ; Move to start
G1 X2.8475494384765625 Y117.46983337402344 ; Draw line
G0 X2.8475494384765625 Y117.46983337402344 ; Move to start
G1 X2.842926025390625 Y117.47662353515625 ; Draw line
G0 X2.842926025390625 Y117.47662353515625 ; Move to start
G1 X2.8390350341796875 Y117.48685455322266 ; Draw line
G0 X2.8390350341796875 Y117.48685455322266 ; Move to start
G1 X2.82257080078125 Y117.52385711669922 ; Draw line
G0 X2.82257080078125 Y117.52385711669922 ; Move to start
G1 X1.8384857177734375 Y119.9659423828125 ; Draw line
G0 X1.8384857177734375 Y119.9659423828125 ; Move to start
G1 X1.5816192626953125 Y121.40955352783203 ; Draw line
G0 X1.5816192626953125 Y121.40955352783203 ; Move to start
G1 X1.3282470703125 Y122.4578857421875 ; Draw line
G0 X1.3282470703125 Y122.4578857421875 ; Move to start
G1 X1.4678192138671875 Y124.22602081298828 ; Draw line
G0 X1.4678192138671875 Y124.22602081298828 ; Move to start
G1 X1.4339599609375 Y124.9498519897461 ; Draw line
G0 X1.4339599609375 Y124.9498519897461 ; Move to start
G1 X1.6577911376953125 Y125.7037353515625 ; Draw line
G0 X1.6577911376953125 Y125.7037353515625 ; Move to start
G1 X2.2580108642578125 Y127.1935806274414 ; Draw line
G0 X2.2580108642578125 Y127.1935806274414 ; Move to start
G1 X2.3113250732421875 Y127.249267578125 ; Draw line
G0 X2.3113250732421875 Y127.249267578125 ; Move to start
G1 X2.32098388671875 Y127.25634765625 ; Draw line
G0 X2.32098388671875 Y127.25634765625 ; Move to start
G1 X2.327972412109375 Y127.26332092285156 ; Draw line
G0 X2.327972412109375 Y127.26332092285156 ; Move to start
G1 X2.3346405029296875 Y127.2737808227539 ; Draw line
G0 X2.3346405029296875 Y127.2737808227539 ; Move to start
G1 X2.364044189453125 Y127.31820678710938 ; Draw line
G0 X2.364044189453125 Y127.31820678710938 ; Move to start
G1 X3.21124267578125 Y128.65000915527344 ; Draw line
G0 X3.21124267578125 Y128.65000915527344 ; Move to start
G1 X3.620635986328125 Y129.28013610839844 ; Draw line
G0 X3.620635986328125 Y129.28013610839844 ; Move to start
G1 X4.8227691650390625 Y130.5114288330078 ; Draw line
G0 X4.8227691650390625 Y130.5114288330078 ; Move to start
G1 X4.8453521728515625 Y130.53173828125 ; Draw line
G0 X4.8453521728515625 Y130.53173828125 ; Move to start
G1 X4.864349365234375 Y130.56002807617188 ; Draw line
G0 X4.864349365234375 Y130.56002807617188 ; Move to start
G1 X6.023590087890625 Y131.73977661132812 ; Draw line
G0 X6.023590087890625 Y131.73977661132812 ; Move to start
G1 X7.087249755859375 Y133.092529296875 ; Draw line
G0 X7.087249755859375 Y133.092529296875 ; Move to start
G1 X7.3384857177734375 Y133.4421844482422 ; Draw line
G0 X7.3384857177734375 Y133.4421844482422 ; Move to start
G1 X7.618339538574219 Y133.94932556152344 ; Draw line
G0 X7.618339538574219 Y133.94932556152344 ; Move to start
G1 X8.006057739257812 Y135.03652954101562 ; Draw line
G0 X8.006057739257812 Y135.03652954101562 ; Move to start
G1 X8.639060974121094 Y135.73858642578125 ; Draw line
G0 X8.639060974121094 Y135.73858642578125 ; Move to start
G1 X8.650146484375 Y135.75503540039062 ; Draw line
G0 X8.650146484375 Y135.75503540039062 ; Move to start
G1 X9.185218811035156 Y136.9169921875 ; Draw line
G0 X9.185218811035156 Y136.9169921875 ; Move to start
G1 X9.188652038574219 Y136.92335510253906 ; Draw line
G0 X9.188652038574219 Y136.92335510253906 ; Move to start
G1 X9.44927978515625 Y137.5832977294922 ; Draw line
G0 X9.44927978515625 Y137.5832977294922 ; Move to start
G1 X9.998077392578125 Y138.4916534423828 ; Draw line
G0 X9.998077392578125 Y138.4916534423828 ; Move to start
G1 X10.072288513183594 Y138.5467529296875 ; Draw line
G0 X10.072288513183594 Y138.5467529296875 ; Move to start
G1 X10.09930419921875 Y138.57223510742188 ; Draw line
G0 X10.09930419921875 Y138.57223510742188 ; Move to start
G1 X11.028549194335938 Y139.6833953857422 ; Draw line
G0 X11.028549194335938 Y139.6833953857422 ; Move to start
G1 X11.376602172851562 Y140.04690551757812 ; Draw line
G0 X11.376602172851562 Y140.04690551757812 ; Move to start
G1 X11.41314697265625 Y140.0762176513672 ; Draw line
G0 X11.41314697265625 Y140.0762176513672 ; Move to start
G1 X11.442420959472656 Y140.1165313720703 ; Draw line
G0 X11.442420959472656 Y140.1165313720703 ; Move to start
G1 X11.464179992675781 Y140.1483612060547 ; Draw line
G0 X11.464179992675781 Y140.1483612060547 ; Move to start
G1 X13.350730895996094 Y141.7375946044922 ; Draw line
G0 X13.350730895996094 Y141.7375946044922 ; Move to start
G1 X13.455322265625 Y141.77886962890625 ; Draw line
G0 X13.455322265625 Y141.77886962890625 ; Move to start
G1 X13.588348388671875 Y141.84849548339844 ; Draw line
G0 X13.588348388671875 Y141.84849548339844 ; Move to start
G1 X15.236396789550781 Y142.9957733154297 ; Draw line
G0 X15.236396789550781 Y142.9957733154297 ; Move to start
G1 X15.578147888183594 Y143.29957580566406 ; Draw line
G0 X15.578147888183594 Y143.29957580566406 ; Move to start
G1 X15.844703674316406 Y143.55091857910156 ; Draw line
G0 X15.844703674316406 Y143.55091857910156 ; Move to start
G1 X16.313926696777344 Y144.44679260253906 ; Draw line
G0 X16.313926696777344 Y144.44679260253906 ; Move to start
G1 X16.36260986328125 Y144.48974609375 ; Draw line
G0 X16.36260986328125 Y144.48974609375 ; Move to start
G1 X17.574310302734375 Y144.91632080078125 ; Draw line
G0 X17.574310302734375 Y144.91632080078125 ; Move to start
G1 X17.959617614746094 Y145.2763671875 ; Draw line
G0 X17.959617614746094 Y145.2763671875 ; Move to start
G1 X18.346694946289062 Y145.62525939941406 ; Draw line
G0 X18.346694946289062 Y145.62525939941406 ; Move to start
G1 X18.900413513183594 Y146.6346893310547 ; Draw line
G0 X18.900413513183594 Y146.6346893310547 ; Move to start
G1 X19.117874145507812 Y146.81271362304688 ; Draw line
G0 X19.117874145507812 Y146.81271362304688 ; Move to start
G1 X20.304214477539062 Y147.27825927734375 ; Draw line
G0 X20.304214477539062 Y147.27825927734375 ; Move to start
G1 X20.65716552734375 Y147.58705139160156 ; Draw line
G0 X20.65716552734375 Y147.58705139160156 ; Move to start
G1 X21.066757202148438 Y147.9717559814453 ; Draw line
G0 X21.066757202148438 Y147.9717559814453 ; Move to start
G1 X21.689788818359375 Y148.8584442138672 ; Draw line
G0 X21.689788818359375 Y148.8584442138672 ; Move to start
G1 X21.794265747070312 Y148.94261169433594 ; Draw line
G0 X21.794265747070312 Y148.94261169433594 ; Move to start
G1 X23.087570190429688 Y149.59133911132812 ; Draw line
G0 X23.087570190429688 Y149.59133911132812 ; Move to start
G1 X23.336837768554688 Y149.83998107910156 ; Draw line
G0 X23.336837768554688 Y149.83998107910156 ; Move to start
G1 X23.643218994140625 Y150.180419921875 ; Draw line
G0 X23.643218994140625 Y150.180419921875 ; Move to start
G1 X24.409568786621094 Y151.175048828125 ; Draw line
G0 X24.409568786621094 Y151.175048828125 ; Move to start
G1 X25.557533264160156 Y151.87307739257812 ; Draw line
G0 X25.557533264160156 Y151.87307739257812 ; Move to start
G1 X25.79639434814453 Y152.3431396484375 ; Draw line
G0 X25.79639434814453 Y152.3431396484375 ; Move to start
G1 X26.232711791992188 Y152.64007568359375 ; Draw line
G0 X26.232711791992188 Y152.64007568359375 ; Move to start
G1 X26.925064086914062 Y153.56414794921875 ; Draw line
G0 X26.925064086914062 Y153.56414794921875 ; Move to start
G1 X27.9549560546875 Y154.28103637695312 ; Draw line
G0 X27.9549560546875 Y154.28103637695312 ; Move to start
G1 X28.20873260498047 Y155.10914611816406 ; Draw line
G0 X28.20873260498047 Y155.10914611816406 ; Move to start
G1 X28.836647033691406 Y155.4461669921875 ; Draw line
G0 X28.836647033691406 Y155.4461669921875 ; Move to start
G1 X29.389503479003906 Y156.15130615234375 ; Draw line
G0 X29.389503479003906 Y156.15130615234375 ; Move to start
G1 X29.56188201904297 Y156.21620178222656 ; Draw line
G0 X29.56188201904297 Y156.21620178222656 ; Move to start
G1 X30.061546325683594 Y156.8021240234375 ; Draw line
G0 X30.061546325683594 Y156.8021240234375 ; Move to start
G1 X30.130355834960938 Y157.018310546875 ; Draw line
G0 X30.130355834960938 Y157.018310546875 ; Move to start
G1 X31.04547882080078 Y158.45542907714844 ; Draw line
G0 X31.04547882080078 Y158.45542907714844 ; Move to start
G1 X31.86426544189453 Y159.34242248535156 ; Draw line
G0 X31.86426544189453 Y159.34242248535156 ; Move to start
G1 X33.268341064453125 Y161.26834106445312 ; Draw line
G0 X33.268341064453125 Y161.26834106445312 ; Move to start
G1 X33.66015625 Y161.7580108642578 ; Draw line
G0 X33.66015625 Y161.7580108642578 ; Move to start
G1 X34.52317810058594 Y163.41441345214844 ; Draw line
G0 X34.52317810058594 Y163.41441345214844 ; Move to start
G1 X35.017494201660156 Y164.23719787597656 ; Draw line
G0 X35.017494201660156 Y164.23719787597656 ; Move to start
G1 X35.19264221191406 Y164.7344970703125 ; Draw line
G0 X35.19264221191406 Y164.7344970703125 ; Move to start
G1 X36.13006591796875 Y166.64291381835938 ; Draw line
G0 X36.13006591796875 Y166.64291381835938 ; Move to start
G1 X36.44822692871094 Y167.93914794921875 ; Draw line
G0 X36.44822692871094 Y167.93914794921875 ; Move to start
G1 X36.63146209716797 Y168.8399658203125 ; Draw line
G0 X36.63146209716797 Y168.8399658203125 ; Move to start
G1 X36.87525177001953 Y169.91543579101562 ; Draw line
G0 X36.87525177001953 Y169.91543579101562 ; Move to start
G1 X36.86271667480469 Y170.62353515625 ; Draw line
G0 X36.86271667480469 Y170.62353515625 ; Move to start
G1 X37.13139343261719 Y171.51573181152344 ; Draw line
G0 X37.13139343261719 Y171.51573181152344 ; Move to start
G1 X37.14051055908203 Y172.4909210205078 ; Draw line
G0 X37.14051055908203 Y172.4909210205078 ; Move to start
G1 X37.348793029785156 Y173.17529296875 ; Draw line
G0 X37.348793029785156 Y173.17529296875 ; Move to start
G1 X37.53453063964844 Y174.5675811767578 ; Draw line
G0 X37.53453063964844 Y174.5675811767578 ; Move to start
G1 X37.544029235839844 Y174.9080810546875 ; Draw line
G0 X37.544029235839844 Y174.9080810546875 ; Move to start
G1 X37.22467803955078 Y175.7553253173828 ; Draw line
G0 X37.22467803955078 Y175.7553253173828 ; Move to start
G1 X37.20928192138672 Y176.07568359375 ; Draw line
G0 X37.20928192138672 Y176.07568359375 ; Move to start
G1 X37.16840362548828 Y176.1963348388672 ; Draw line
G0 X37.16840362548828 Y176.1963348388672 ; Move to start
G1 X37.02269744873047 Y176.4505157470703 ; Draw line
G0 X37.02269744873047 Y176.4505157470703 ; Move to start
G1 X36.64723205566406 Y177.43792724609375 ; Draw line
G0 X36.64723205566406 Y177.43792724609375 ; Move to start
G1 X36.43061065673828 Y177.9734344482422 ; Draw line
G0 X36.43061065673828 Y177.9734344482422 ; Move to start
G1 X35.778900146484375 Y179.03155517578125 ; Draw line
G0 X35.778900146484375 Y179.03155517578125 ; Move to start
G1 X35.217140197753906 Y179.69338989257812 ; Draw line
G0 X35.217140197753906 Y179.69338989257812 ; Move to start
G1 X34.54389953613281 Y180.9271697998047 ; Draw line
G0 X34.54389953613281 Y180.9271697998047 ; Move to start
G1 X34.203094482421875 Y181.66653442382812 ; Draw line
G0 X34.203094482421875 Y181.66653442382812 ; Move to start
G1 X33.99427795410156 Y182.1577911376953 ; Draw line
G0 X33.99427795410156 Y182.1577911376953 ; Move to start
G1 X33.465110778808594 Y182.99114990234375 ; Draw line
G0 X33.465110778808594 Y182.99114990234375 ; Move to start
G1 X32.77809143066406 Y183.64434814453125 ; Draw line
G0 X32.77809143066406 Y183.64434814453125 ; Move to start
G1 X32.47075653076172 Y184.03182983398438 ; Draw line
G0 X32.47075653076172 Y184.03182983398438 ; Move to start
G1 X32.262657165527344 Y184.35411071777344 ; Draw line
G0 X32.262657165527344 Y184.35411071777344 ; Move to start
G1 X31.6715087890625 Y185.5416259765625 ; Draw line
G0 X31.6715087890625 Y185.5416259765625 ; Move to start
G1 X30.954261779785156 Y186.9065704345703 ; Draw line
G0 X30.954261779785156 Y186.9065704345703 ; Move to start
G1 X30.90589141845703 Y187.00926208496094 ; Draw line
G0 X30.90589141845703 Y187.00926208496094 ; Move to start
G1 X30.734207153320312 Y187.57003784179688 ; Draw line
G0 X30.734207153320312 Y187.57003784179688 ; Move to start
G1 X30.203781127929688 Y188.54241943359375 ; Draw line
G0 X30.203781127929688 Y188.54241943359375 ; Move to start
G1 X29.698272705078125 Y189.22586059570312 ; Draw line
G0 X29.698272705078125 Y189.22586059570312 ; Move to start
G1 X29.56903076171875 Y189.70896911621094 ; Draw line
G0 X29.56903076171875 Y189.70896911621094 ; Move to start
G1 X29.2752685546875 Y190.6369171142578 ; Draw line
G0 X29.2752685546875 Y190.6369171142578 ; Move to start
G1 X28.488182067871094 Y192.44972229003906 ; Draw line
G0 X28.488182067871094 Y192.44972229003906 ; Move to start
G1 X28.47779083251953 Y192.4888153076172 ; Draw line
G0 X28.47779083251953 Y192.4888153076172 ; Move to start
G1 X28.222824096679688 Y193.576171875 ; Draw line
G0 X28.222824096679688 Y193.576171875 ; Move to start
G1 X27.8824462890625 Y195.67562866210938 ; Draw line
G0 X27.8824462890625 Y195.67562866210938 ; Move to start
G1 X28.036643981933594 Y198.05027770996094 ; Draw line
G0 X28.036643981933594 Y198.05027770996094 ; Move to start
G1 X28.06896209716797 Y198.92425537109375 ; Draw line
G0 X28.06896209716797 Y198.92425537109375 ; Move to start
G1 X28.302139282226562 Y199.2999267578125 ; Draw line
G0 X28.302139282226562 Y199.2999267578125 ; Move to start
G1 X28.359619140625 Y199.81089782714844 ; Draw line
G0 X28.359619140625 Y199.81089782714844 ; Move to start
G1 X28.657424926757812 Y200.09912109375 ; Draw line
G0 X28.657424926757812 Y200.09912109375 ; Move to start
G1 X29.186477661132812 Y201.39073181152344 ; Draw line
G0 X29.186477661132812 Y201.39073181152344 ; Move to start
G1 X30.226730346679688 Y201.68093872070312 ; Draw line
G0 X30.226730346679688 Y201.68093872070312 ; Move to start
G1 X30.24994659423828 Y201.69503784179688 ; Draw line
G0 X30.24994659423828 Y201.69503784179688 ; Move to start
G1 X31.0064697265625 Y202.63914489746094 ; Draw line
G0 X31.0064697265625 Y202.63914489746094 ; Move to start
G1 X31.01361846923828 Y202.64382934570312 ; Draw line
G0 X31.01361846923828 Y202.64382934570312 ; Move to start
G1 X31.67089080810547 Y203.217041015625 ; Draw line
G0 X31.67089080810547 Y203.217041015625 ; Move to start
G1 X32.26799774169922 Y203.5845489501953 ; Draw line
G0 X32.26799774169922 Y203.5845489501953 ; Move to start
G1 X32.785186767578125 Y203.68161010742188 ; Draw line
G0 X32.785186767578125 Y203.68161010742188 ; Move to start
G1 X32.84947204589844 Y203.6976776123047 ; Draw line
G0 X32.84947204589844 Y203.6976776123047 ; Move to start
G1 X34.499786376953125 Y204.31582641601562 ; Draw line
G0 X34.499786376953125 Y204.31582641601562 ; Move to start
G1 X35.251136779785156 Y204.59014892578125 ; Draw line
G0 X35.251136779785156 Y204.59014892578125 ; Move to start
G1 X35.999603271484375 Y205.05409240722656 ; Draw line
G0 X35.999603271484375 Y205.05409240722656 ; Move to start
G1 X36.48023223876953 Y205.2395782470703 ; Draw line
G0 X36.48023223876953 Y205.2395782470703 ; Move to start
G1 X37.16584014892578 Y205.23641967773438 ; Draw line
G0 X37.16584014892578 Y205.23641967773438 ; Move to start
G1 X37.167694091796875 Y205.23724365234375 ; Draw line
G0 X37.167694091796875 Y205.23724365234375 ; Move to start
G1 X37.79060363769531 Y205.75540161132812 ; Draw line
G0 X37.79060363769531 Y205.75540161132812 ; Move to start
G1 X38.69378662109375 Y206.12550354003906 ; Draw line
G0 X38.69378662109375 Y206.12550354003906 ; Move to start
G1 X39.29547119140625 Y206.61526489257812 ; Draw line
G0 X39.29547119140625 Y206.61526489257812 ; Move to start
G1 X40.588890075683594 Y207.10162353515625 ; Draw line
G0 X40.588890075683594 Y207.10162353515625 ; Move to start
G1 X41.21337890625 Y207.90740966796875 ; Draw line
G0 X41.21337890625 Y207.90740966796875 ; Move to start
G1 X41.86699676513672 Y208.44227600097656 ; Draw line
G0 X41.86699676513672 Y208.44227600097656 ; Move to start
G1 X43.57996368408203 Y209.47703552246094 ; Draw line
G0 X43.57996368408203 Y209.47703552246094 ; Move to start
G1 X44.53131103515625 Y209.81849670410156 ; Draw line
G0 X44.53131103515625 Y209.81849670410156 ; Move to start
G1 X47.250572204589844 Y211.88844299316406 ; Draw line
G0 X47.250572204589844 Y211.88844299316406 ; Move to start
G1 X47.275108337402344 Y211.89707946777344 ; Draw line
G0 X47.275108337402344 Y211.89707946777344 ; Move to start
G1 X47.28106689453125 Y211.90061950683594 ; Draw line
G0 X47.28106689453125 Y211.90061950683594 ; Move to start
G1 X47.28601837158203 Y211.90194702148438 ; Draw line
G0 X47.28601837158203 Y211.90194702148438 ; Move to start
G1 X47.295921325683594 Y211.90853881835938 ; Draw line
G0 X47.295921325683594 Y211.90853881835938 ; Move to start
G1 X47.50990295410156 Y212.05728149414062 ; Draw line
G0 X47.50990295410156 Y212.05728149414062 ; Move to start
G1 X49.67304229736328 Y213.50914001464844 ; Draw line
G0 X49.67304229736328 Y213.50914001464844 ; Move to start
G1 X49.80326843261719 Y213.6781005859375 ; Draw line
G0 X49.80326843261719 Y213.6781005859375 ; Move to start
G1 X50.69685363769531 Y214.3854217529297 ; Draw line
G0 X50.69685363769531 Y214.3854217529297 ; Move to start
G1 X51.060264587402344 Y214.62667846679688 ; Draw line
G0 X51.060264587402344 Y214.62667846679688 ; Move to start
G1 X51.41919708251953 Y214.75094604492188 ; Draw line
G0 X51.41919708251953 Y214.75094604492188 ; Move to start
G1 X51.660850524902344 Y215.04493713378906 ; Draw line
G0 X51.660850524902344 Y215.04493713378906 ; Move to start
G1 X51.82280731201172 Y215.2322235107422 ; Draw line
G0 X51.82280731201172 Y215.2322235107422 ; Move to start
G1 X52.122276306152344 Y215.56399536132812 ; Draw line
G0 X52.122276306152344 Y215.56399536132812 ; Move to start
G1 X52.560768127441406 Y216.1618194580078 ; Draw line
G0 X52.560768127441406 Y216.1618194580078 ; Move to start
G1 X52.934112548828125 Y216.74459838867188 ; Draw line
G0 X52.934112548828125 Y216.74459838867188 ; Move to start
G1 X53.356292724609375 Y216.91204833984375 ; Draw line
G0 X53.356292724609375 Y216.91204833984375 ; Move to start
G1 X53.514625549316406 Y217.31588745117188 ; Draw line
G0 X53.514625549316406 Y217.31588745117188 ; Move to start
G1 X53.74671173095703 Y218.04574584960938 ; Draw line
G0 X53.74671173095703 Y218.04574584960938 ; Move to start
G1 X54.19202423095703 Y218.3441162109375 ; Draw line
G0 X54.19202423095703 Y218.3441162109375 ; Move to start
G1 X54.318695068359375 Y218.8285675048828 ; Draw line
G0 X54.318695068359375 Y218.8285675048828 ; Move to start
G1 X54.11865234375 Y219.13734436035156 ; Draw line
G0 X54.11865234375 Y219.13734436035156 ; Move to start
G1 X54.436378479003906 Y220.36318969726562 ; Draw line
G0 X54.436378479003906 Y220.36318969726562 ; Move to start
G1 X54.467254638671875 Y220.88754272460938 ; Draw line
G0 X54.467254638671875 Y220.88754272460938 ; Move to start
G1 X54.6593017578125 Y221.95310974121094 ; Draw line
G0 X54.6593017578125 Y221.95310974121094 ; Move to start
G1 X55.15355682373047 Y223.2609405517578 ; Draw line
G0 X55.15355682373047 Y223.2609405517578 ; Move to start
G1 X55.670875549316406 Y224.81588745117188 ; Draw line
G0 X55.670875549316406 Y224.81588745117188 ; Move to start
G1 X56.01275634765625 Y225.43109130859375 ; Draw line
G0 X56.01275634765625 Y225.43109130859375 ; Move to start
G1 X56.26368713378906 Y225.99142456054688 ; Draw line
G0 X56.26368713378906 Y225.99142456054688 ; Move to start
G1 X57.2353515625 Y227.44561767578125 ; Draw line
G0 X57.2353515625 Y227.44561767578125 ; Move to start
G1 X57.586822509765625 Y228.05520629882812 ; Draw line
G0 X57.586822509765625 Y228.05520629882812 ; Move to start
G1 X58.0556640625 Y229.29067993164062 ; Draw line
G0 X58.0556640625 Y229.29067993164062 ; Move to start
G1 X58.348915100097656 Y229.66632080078125 ; Draw line
G0 X58.348915100097656 Y229.66632080078125 ; Move to start
G1 X58.38720703125 Y229.82748413085938 ; Draw line
G0 X58.38720703125 Y229.82748413085938 ; Move to start
G1 X58.52375030517578 Y230.77333068847656 ; Draw line
G0 X58.52375030517578 Y230.77333068847656 ; Move to start
G1 X58.75189971923828 Y231.62982177734375 ; Draw line
G0 X58.75189971923828 Y231.62982177734375 ; Move to start
G1 X58.74755859375 Y231.72775268554688 ; Draw line
G0 X58.74755859375 Y231.72775268554688 ; Move to start
G1 X58.73365020751953 Y233.52528381347656 ; Draw line
G0 X58.73365020751953 Y233.52528381347656 ; Move to start
G1 X58.60980224609375 Y234.15785217285156 ; Draw line
G0 X58.60980224609375 Y234.15785217285156 ; Move to start
G1 X58.539833068847656 Y235.17994689941406 ; Draw line
G0 X58.539833068847656 Y235.17994689941406 ; Move to start
G1 X58.47955322265625 Y235.82919311523438 ; Draw line
G0 X58.47955322265625 Y235.82919311523438 ; Move to start
G1 X58.26776123046875 Y236.61524963378906 ; Draw line
G0 X58.26776123046875 Y236.61524963378906 ; Move to start
G1 X58.26066589355469 Y238.11175537109375 ; Draw line
G0 X58.26066589355469 Y238.11175537109375 ; Move to start
G1 X58.04667663574219 Y239.09877014160156 ; Draw line
G0 X58.04667663574219 Y239.09877014160156 ; Move to start
G1 X58.06048583984375 Y240.23081970214844 ; Draw line
G0 X58.06048583984375 Y240.23081970214844 ; Move to start
G1 X57.65160369873047 Y241.57925415039062 ; Draw line
G0 X57.65160369873047 Y241.57925415039062 ; Move to start
G1 X57.624549865722656 Y242.20042419433594 ; Draw line
G0 X57.624549865722656 Y242.20042419433594 ; Move to start
G1 X57.030479431152344 Y243.55433654785156 ; Draw line
G0 X57.030479431152344 Y243.55433654785156 ; Move to start
G1 X56.908546447753906 Y243.930908203125 ; Draw line
G0 X56.908546447753906 Y243.930908203125 ; Move to start
G1 X56.831993103027344 Y244.060302734375 ; Draw line
G0 X56.831993103027344 Y244.060302734375 ; Move to start
G1 X56.456329345703125 Y245.96975708007812 ; Draw line
G0 X56.456329345703125 Y245.96975708007812 ; Move to start
G1 X55.997657775878906 Y246.56019592285156 ; Draw line
G0 X55.997657775878906 Y246.56019592285156 ; Move to start
G1 X56.06365966796875 Y248.04867553710938 ; Draw line
G0 X56.06365966796875 Y248.04867553710938 ; Move to start
G1 X55.96800994873047 Y249.09616088867188 ; Draw line
G0 X55.96800994873047 Y249.09616088867188 ; Move to start
G1 X56.581932067871094 Y251.02938842773438 ; Draw line
G0 X56.581932067871094 Y251.02938842773438 ; Move to start
G1 X56.890625 Y251.7579803466797 ; Draw line
G0 X56.890625 Y251.7579803466797 ; Move to start
G1 X57.47228240966797 Y254.28085327148438 ; Draw line
G0 X57.47228240966797 Y254.28085327148438 ; Move to start
G1 X57.50895690917969 Y254.40426635742188 ; Draw line
G0 X57.50895690917969 Y254.40426635742188 ; Move to start
G1 X57.53022003173828 Y254.45797729492188 ; Draw line
G0 X57.53022003173828 Y254.45797729492188 ; Move to start
G1 X58.67432403564453 Y257.05303955078125 ; Draw line
G0 X58.67432403564453 Y257.05303955078125 ; Move to start
G1 X60.072967529296875 Y258.40643310546875 ; Draw line
G0 X60.072967529296875 Y258.40643310546875 ; Move to start
G1 X62.280059814453125 Y259.61712646484375 ; Draw line
G0 X62.280059814453125 Y259.61712646484375 ; Move to start
G1 X62.62408447265625 Y259.72991943359375 ; Draw line
G0 X62.62408447265625 Y259.72991943359375 ; Move to start
G1 X62.71824645996094 Y259.72662353515625 ; Draw line
G0 X62.71824645996094 Y259.72662353515625 ; Move to start
G1 X65.34765625 Y260.65789794921875 ; Draw line
G0 X65.34765625 Y260.65789794921875 ; Move to start
G1 X65.8494644165039 Y260.6015319824219 ; Draw line
G0 X65.8494644165039 Y260.6015319824219 ; Move to start
G1 X68.02486419677734 Y261.4443359375 ; Draw line
G0 X68.02486419677734 Y261.4443359375 ; Move to start
G1 X68.10348510742188 Y261.4359130859375 ; Draw line
G0 X68.10348510742188 Y261.4359130859375 ; Move to start
G1 X69.88499450683594 Y261.7737731933594 ; Draw line
G0 X69.88499450683594 Y261.7737731933594 ; Move to start
G1 X70.68810272216797 Y261.7018737792969 ; Draw line
G0 X70.68810272216797 Y261.7018737792969 ; Move to start
G1 X70.73147583007812 Y261.6965637207031 ; Draw line
G0 X70.73147583007812 Y261.6965637207031 ; Move to start
G1 X73.0986099243164 Y261.3497314453125 ; Draw line
G0 X73.0986099243164 Y261.3497314453125 ; Move to start
G1 X73.29493713378906 Y261.2613220214844 ; Draw line
G0 X73.29493713378906 Y261.2613220214844 ; Move to start
G1 X73.38262939453125 Y261.1748046875 ; Draw line
G0 X73.38262939453125 Y261.1748046875 ; Move to start
G1 X73.51123046875 Y261.2009582519531 ; Draw line
G0 X73.51123046875 Y261.2009582519531 ; Move to start
G1 X75.71531677246094 Y259.9958190917969 ; Draw line
G0 X75.71531677246094 Y259.9958190917969 ; Move to start
G1 X76.17420196533203 Y259.91998291015625 ; Draw line
G0 X76.17420196533203 Y259.91998291015625 ; Move to start
G1 X77.2938003540039 Y259.8054504394531 ; Draw line
G0 X77.2938003540039 Y259.8054504394531 ; Move to start
G1 X78.23904418945312 Y259.6597900390625 ; Draw line
G0 X78.23904418945312 Y259.6597900390625 ; Move to start
G1 X78.38304138183594 Y259.6289367675781 ; Draw line
G0 X78.38304138183594 Y259.6289367675781 ; Move to start
G1 X80.14865112304688 Y259.012451171875 ; Draw line
G0 X80.14865112304688 Y259.012451171875 ; Move to start
G1 X80.62727355957031 Y258.9110412597656 ; Draw line
G0 X80.62727355957031 Y258.9110412597656 ; Move to start
G1 X81.11709594726562 Y258.8374328613281 ; Draw line
G0 X81.11709594726562 Y258.8374328613281 ; Move to start
G1 X82.47588348388672 Y258.19268798828125 ; Draw line
G0 X82.47588348388672 Y258.19268798828125 ; Move to start
G1 X83.04730224609375 Y257.91387939453125 ; Draw line
G0 X83.04730224609375 Y257.91387939453125 ; Move to start
G1 X83.2137222290039 Y257.8520812988281 ; Draw line
G0 X83.2137222290039 Y257.8520812988281 ; Move to start
G1 X83.44131469726562 Y257.80963134765625 ; Draw line
G0 X83.44131469726562 Y257.80963134765625 ; Move to start
G1 X85.50017547607422 Y257.14141845703125 ; Draw line
G0 X85.50017547607422 Y257.14141845703125 ; Move to start
G1 X85.84912872314453 Y257.10919189453125 ; Draw line
G0 X85.84912872314453 Y257.10919189453125 ; Move to start
G1 X86.72776794433594 Y256.9641418457031 ; Draw line
G0 X86.72776794433594 Y256.9641418457031 ; Move to start
G1 X87.8043212890625 Y256.8512878417969 ; Draw line
G0 X87.8043212890625 Y256.8512878417969 ; Move to start
G1 X88.09053039550781 Y256.8243408203125 ; Draw line
G0 X88.09053039550781 Y256.8243408203125 ; Move to start
G1 X89.21562194824219 Y256.78607177734375 ; Draw line
G0 X89.21562194824219 Y256.78607177734375 ; Move to start
G1 X90.15461730957031 Y256.69403076171875 ; Draw line
G0 X90.15461730957031 Y256.69403076171875 ; Move to start
G1 X90.19709777832031 Y256.6924133300781 ; Draw line
G0 X90.19709777832031 Y256.6924133300781 ; Move to start
G1 X91.37806701660156 Y256.92462158203125 ; Draw line
G0 X91.37806701660156 Y256.92462158203125 ; Move to start
G1 X92.29927062988281 Y256.89984130859375 ; Draw line
G0 X92.29927062988281 Y256.89984130859375 ; Move to start
G1 X93.06796264648438 Y256.957763671875 ; Draw line
G0 X93.06796264648438 Y256.957763671875 ; Move to start
G1 X94.33651733398438 Y257.4259948730469 ; Draw line
G0 X94.33651733398438 Y257.4259948730469 ; Move to start
G1 X94.42796325683594 Y257.4232177734375 ; Draw line
G0 X94.42796325683594 Y257.4232177734375 ; Move to start
G1 X95.47447204589844 Y257.7874755859375 ; Draw line
G0 X95.47447204589844 Y257.7874755859375 ; Move to start
G1 X96.16441345214844 Y257.75469970703125 ; Draw line
G0 X96.16441345214844 Y257.75469970703125 ; Move to start
G1 X97.54531860351562 Y257.9920654296875 ; Draw line
G0 X97.54531860351562 Y257.9920654296875 ; Move to start
G1 X98.05738830566406 Y258.00860595703125 ; Draw line
G0 X98.05738830566406 Y258.00860595703125 ; Move to start
G1 X98.28541564941406 Y258.2726745605469 ; Draw line
G0 X98.28541564941406 Y258.2726745605469 ; Move to start
G1 X99.59619140625 Y259.34417724609375 ; Draw line
G0 X99.59619140625 Y259.34417724609375 ; Move to start
G1 X100.00959014892578 Y259.3151550292969 ; Draw line
G0 X100.00959014892578 Y259.3151550292969 ; Move to start
G1 X100.45549011230469 Y259.90325927734375 ; Draw line
G0 X100.45549011230469 Y259.90325927734375 ; Move to start
G1 X100.61962127685547 Y260.46429443359375 ; Draw line
G0 X100.61962127685547 Y260.46429443359375 ; Move to start
G1 X100.99906158447266 Y260.6505432128906 ; Draw line
G0 X100.99906158447266 Y260.6505432128906 ; Move to start
G1 X102.89815521240234 Y261.9212646484375 ; Draw line
G0 X102.89815521240234 Y261.9212646484375 ; Move to start
G1 X103.1743392944336 Y262.4275817871094 ; Draw line
G0 X103.1743392944336 Y262.4275817871094 ; Move to start
G1 X105.02214050292969 Y264.0709228515625 ; Draw line
G0 X105.02214050292969 Y264.0709228515625 ; Move to start
G1 X105.28475952148438 Y264.35467529296875 ; Draw line
G0 X105.28475952148438 Y264.35467529296875 ; Move to start
G1 X105.37548828125 Y264.39215087890625 ; Draw line
G0 X105.37548828125 Y264.39215087890625 ; Move to start
G1 X105.51245880126953 Y264.6888732910156 ; Draw line
G0 X105.51245880126953 Y264.6888732910156 ; Move to start
G1 X106.28074645996094 Y266.98150634765625 ; Draw line
G0 X106.28074645996094 Y266.98150634765625 ; Move to start
G1 X106.17449951171875 Y268.10223388671875 ; Draw line
G0 X106.17449951171875 Y268.10223388671875 ; Move to start
G1 X106.19258117675781 Y269.4834289550781 ; Draw line
G0 X106.19258117675781 Y269.4834289550781 ; Move to start
G1 X106.68379211425781 Y271.83563232421875 ; Draw line
G0 X106.68379211425781 Y271.83563232421875 ; Move to start
G1 X106.72811889648438 Y271.89166259765625 ; Draw line
G0 X106.72811889648438 Y271.89166259765625 ; Move to start
G1 X106.8156967163086 Y271.9464416503906 ; Draw line
G0 X106.8156967163086 Y271.9464416503906 ; Move to start
G1 X106.89148712158203 Y272.0503234863281 ; Draw line
G0 X106.89148712158203 Y272.0503234863281 ; Move to start
G1 X107.54540252685547 Y273.7173156738281 ; Draw line
G0 X107.54540252685547 Y273.7173156738281 ; Move to start
G1 X107.79997253417969 Y274.30743408203125 ; Draw line
G0 X107.79997253417969 Y274.30743408203125 ; Move to start
G1 X107.80192565917969 Y274.3203430175781 ; Draw line
G0 X107.80192565917969 Y274.3203430175781 ; Move to start
G1 X107.80475616455078 Y274.349365234375 ; Draw line
G0 X107.80475616455078 Y274.349365234375 ; Move to start
G1 X107.81623077392578 Y274.4149169921875 ; Draw line
G0 X107.81623077392578 Y274.4149169921875 ; Move to start
G1 X109.07230377197266 Y275.828125 ; Draw line
G0 X109.07230377197266 Y275.828125 ; Move to start
G1 X109.99803161621094 Y276.50006103515625 ; Draw line
G0 X109.99803161621094 Y276.50006103515625 ; Move to start
G1 X110.49734497070312 Y276.5020751953125 ; Draw line
G0 X110.49734497070312 Y276.5020751953125 ; Move to start
G1 X112.489990234375 Y276.68243408203125 ; Draw line
G0 X112.489990234375 Y276.68243408203125 ; Move to start
G1 X112.79998779296875 Y276.65386962890625 ; Draw line
G0 X112.79998779296875 Y276.65386962890625 ; Move to start
G1 X115.01396942138672 Y276.580322265625 ; Draw line
G0 X115.01396942138672 Y276.580322265625 ; Move to start
G1 X115.39170837402344 Y276.549560546875 ; Draw line
G0 X115.39170837402344 Y276.549560546875 ; Move to start
G1 X117.47391510009766 Y276.50531005859375 ; Draw line
G0 X117.47391510009766 Y276.50531005859375 ; Move to start
G1 X117.91441345214844 Y276.518798828125 ; Draw line
G0 X117.91441345214844 Y276.518798828125 ; Move to start
G1 X119.96588134765625 Y276.73626708984375 ; Draw line
G0 X119.96588134765625 Y276.73626708984375 ; Move to start
G1 X120.12857818603516 Y276.7773742675781 ; Draw line
G0 X120.12857818603516 Y276.7773742675781 ; Move to start
G1 X120.65718078613281 Y276.95928955078125 ; Draw line
G0 X120.65718078613281 Y276.95928955078125 ; Move to start
G1 X121.98001861572266 Y277.4371032714844 ; Draw line
G0 X121.98001861572266 Y277.4371032714844 ; Move to start
G1 X122.45783233642578 Y277.63079833984375 ; Draw line
G0 X122.45783233642578 Y277.63079833984375 ; Move to start
G1 X123.54896545410156 Y278.35662841796875 ; Draw line
G0 X123.54896545410156 Y278.35662841796875 ; Move to start
G1 X124.9567642211914 Y279.357421875 ; Draw line
G0 X124.9567642211914 Y279.357421875 ; Move to start
G1 X125.00367736816406 Y279.3986511230469 ; Draw line
G0 X125.00367736816406 Y279.3986511230469 ; Move to start
G1 X125.0499267578125 Y279.4425048828125 ; Draw line
G0 X125.0499267578125 Y279.4425048828125 ; Move to start
G1 X126.26349639892578 Y280.62945556640625 ; Draw line
G0 X126.26349639892578 Y280.62945556640625 ; Move to start
G1 X127.45904541015625 Y281.74560546875 ; Draw line
G0 X127.45904541015625 Y281.74560546875 ; Move to start
G1 X127.56868743896484 Y281.8438720703125 ; Draw line
G0 X127.56868743896484 Y281.8438720703125 ; Move to start
G1 X127.69335174560547 Y281.9432067871094 ; Draw line
G0 X127.69335174560547 Y281.9432067871094 ; Move to start
G1 X128.9356231689453 Y282.9482421875 ; Draw line
G0 X128.9356231689453 Y282.9482421875 ; Move to start
G1 X129.93368530273438 Y283.5263671875 ; Draw line
G0 X129.93368530273438 Y283.5263671875 ; Move to start
G1 X130.5071563720703 Y283.8038635253906 ; Draw line
G0 X130.5071563720703 Y283.8038635253906 ; Move to start
G1 X132.4132843017578 Y284.1678466796875 ; Draw line
G0 X132.4132843017578 Y284.1678466796875 ; Move to start
G1 X132.68597412109375 Y284.2113037109375 ; Draw line
G0 X132.68597412109375 Y284.2113037109375 ; Move to start
G1 X134.9233856201172 Y283.7859802246094 ; Draw line
G0 X134.9233856201172 Y283.7859802246094 ; Move to start
G1 X135.86997985839844 Y283.7129821777344 ; Draw line
G0 X135.86997985839844 Y283.7129821777344 ; Move to start
G1 X137.3983154296875 Y283.1750793457031 ; Draw line
G0 X137.3983154296875 Y283.1750793457031 ; Move to start
G1 X139.59947204589844 Y282.109619140625 ; Draw line
G0 X139.59947204589844 Y282.109619140625 ; Move to start
G1 X139.67584228515625 Y282.052978515625 ; Draw line
G0 X139.67584228515625 Y282.052978515625 ; Move to start
G1 X139.7725372314453 Y282.0457763671875 ; Draw line
G0 X139.7725372314453 Y282.0457763671875 ; Move to start
G1 X141.525146484375 Y280.9354248046875 ; Draw line
G0 X141.525146484375 Y280.9354248046875 ; Move to start
G1 X141.6700439453125 Y280.9135437011719 ; Draw line
G0 X141.6700439453125 Y280.9135437011719 ; Move to start
G1 X141.73414611816406 Y280.824462890625 ; Draw line
G0 X141.73414611816406 Y280.824462890625 ; Move to start
G1 X142.85948181152344 Y279.8545227050781 ; Draw line
G0 X142.85948181152344 Y279.8545227050781 ; Move to start
G1 X144.03604125976562 Y278.66693115234375 ; Draw line
G0 X144.03604125976562 Y278.66693115234375 ; Move to start
G1 X144.3054656982422 Y278.547119140625 ; Draw line
G0 X144.3054656982422 Y278.547119140625 ; Move to start
G1 X144.3798370361328 Y278.3837585449219 ; Draw line
G0 X144.3798370361328 Y278.3837585449219 ; Move to start
G1 X145.4146728515625 Y276.8157958984375 ; Draw line
G0 X145.4146728515625 Y276.8157958984375 ; Move to start
G1 X146.77963256835938 Y276.0439453125 ; Draw line
G0 X146.77963256835938 Y276.0439453125 ; Move to start
G1 X146.86956787109375 Y275.9967041015625 ; Draw line
G0 X146.86956787109375 Y275.9967041015625 ; Move to start
G1 X147.37814331054688 Y274.9378662109375 ; Draw line
G0 X147.37814331054688 Y274.9378662109375 ; Move to start
G1 X147.86550903320312 Y274.7081298828125 ; Draw line
G0 X147.86550903320312 Y274.7081298828125 ; Move to start
G1 X147.9652862548828 Y274.5738220214844 ; Draw line
G0 X147.9652862548828 Y274.5738220214844 ; Move to start
G1 X149.53466796875 Y273.8193359375 ; Draw line
G0 X149.53466796875 Y273.8193359375 ; Move to start
G1 X149.64553833007812 Y273.75189208984375 ; Draw line
G0 X149.64553833007812 Y273.75189208984375 ; Move to start
G1 X149.69398498535156 Y273.7528076171875 ; Draw line
G0 X149.69398498535156 Y273.7528076171875 ; Move to start
G1 X152.0216064453125 Y273.1757507324219 ; Draw line
G0 X152.0216064453125 Y273.1757507324219 ; Move to start
G1 X152.10186767578125 Y273.145263671875 ; Draw line
G0 X152.10186767578125 Y273.145263671875 ; Move to start
G1 X152.42227172851562 Y272.9583435058594 ; Draw line
G0 X152.42227172851562 Y272.9583435058594 ; Move to start
G1 X152.46578979492188 Y272.6638488769531 ; Draw line
G0 X152.46578979492188 Y272.6638488769531 ; Move to start
G1 X155.13021850585938 Y272.3716735839844 ; Draw line
G0 X155.13021850585938 Y272.3716735839844 ; Move to start
G1 X162.69737243652344 Y271.8570861816406 ; Draw line
G0 X162.69737243652344 Y271.8570861816406 ; Move to start
G1 X166.9859161376953 Y269.12359619140625 ; Draw line
G0 X166.9859161376953 Y269.12359619140625 ; Move to start
G1 X171.41578674316406 Y267.87213134765625 ; Draw line
G0 X171.41578674316406 Y267.87213134765625 ; Move to start
G1 X177.30563354492188 Y265.96484375 ; Draw line
G0 X177.30563354492188 Y265.96484375 ; Move to start
G1 X181.12213134765625 Y265.24896240234375 ; Draw line
G0 X181.12213134765625 Y265.24896240234375 ; Move to start
G1 X186.15975952148438 Y264.6381530761719 ; Draw line
G0 X186.15975952148438 Y264.6381530761719 ; Move to start
G1 X191.34127807617188 Y263.1717529296875 ; Draw line
G0 X191.34127807617188 Y263.1717529296875 ; Move to start
G1 X194.542236328125 Y263.3809509277344 ; Draw line
G0 X194.542236328125 Y263.3809509277344 ; Move to start
G1 X201.28472900390625 Y260.2838134765625 ; Draw line
G0 X201.28472900390625 Y260.2838134765625 ; Move to start
G1 X210.93475341796875 Y256.08721923828125 ; Draw line
G0 X210.93475341796875 Y256.08721923828125 ; Move to start
G1 X210.9420166015625 Y256.0845031738281 ; Draw line
G0 X210.9420166015625 Y256.0845031738281 ; Move to start
G1 X210.95364379882812 Y256.07684326171875 ; Draw line
G0 X210.95364379882812 Y256.07684326171875 ; Move to start
G1 X210.9639892578125 Y256.069091796875 ; Draw line
G0 X210.9639892578125 Y256.069091796875 ; Move to start
G1 X211.25979614257812 Y255.754638671875 ; Draw line
G0 X211.25979614257812 Y255.754638671875 ; Move to start
G1 X211.95782470703125 Y255.00616455078125 ; Draw line
G0 X211.95782470703125 Y255.00616455078125 ; Move to start
G1 X212.05999755859375 Y255.0618133544922 ; Draw line
G0 X212.05999755859375 Y255.0618133544922 ; Move to start
G1 X212.37716674804688 Y255.11831665039062 ; Draw line
G0 X212.37716674804688 Y255.11831665039062 ; Move to start
G1 X212.94662475585938 Y255.4815216064453 ; Draw line
G0 X212.94662475585938 Y255.4815216064453 ; Move to start
G1 X214.57936096191406 Y255.70932006835938 ; Draw line
G0 X214.57936096191406 Y255.70932006835938 ; Move to start
G1 X216.607177734375 Y255.85406494140625 ; Draw line
G0 X216.607177734375 Y255.85406494140625 ; Move to start
G1 X217.10848999023438 Y256.038818359375 ; Draw line
G0 X217.10848999023438 Y256.038818359375 ; Move to start
G1 X219.26686096191406 Y256.028076171875 ; Draw line
G0 X219.26686096191406 Y256.028076171875 ; Move to start
G1 X219.6224365234375 Y256.07562255859375 ; Draw line
G0 X219.6224365234375 Y256.07562255859375 ; Move to start
G1 X221.78536987304688 Y255.97898864746094 ; Draw line
G0 X221.78536987304688 Y255.97898864746094 ; Move to start
G1 X222.12744140625 Y255.9930877685547 ; Draw line
G0 X222.12744140625 Y255.9930877685547 ; Move to start
G1 X224.13442993164062 Y255.86392211914062 ; Draw line
G0 X224.13442993164062 Y255.86392211914062 ; Move to start
G1 X224.62591552734375 Y255.86444091796875 ; Draw line
G0 X224.62591552734375 Y255.86444091796875 ; Move to start
G1 X225.71096801757812 Y255.7530517578125 ; Draw line
G0 X225.71096801757812 Y255.7530517578125 ; Move to start
G1 X227.06060791015625 Y255.65875244140625 ; Draw line
G0 X227.06060791015625 Y255.65875244140625 ; Move to start
G1 X227.19265747070312 Y255.61248779296875 ; Draw line
G0 X227.19265747070312 Y255.61248779296875 ; Move to start
G1 X229.5866241455078 Y255.468505859375 ; Draw line
G0 X229.5866241455078 Y255.468505859375 ; Move to start
G1 X229.61203002929688 Y255.46502685546875 ; Draw line
G0 X229.61203002929688 Y255.46502685546875 ; Move to start
G1 X232.07833862304688 Y255.326904296875 ; Draw line
G0 X232.07833862304688 Y255.326904296875 ; Move to start
G1 X232.10397338867188 Y255.3245086669922 ; Draw line
G0 X232.10397338867188 Y255.3245086669922 ; Move to start
G1 X234.57029724121094 Y255.2230224609375 ; Draw line
G0 X234.57029724121094 Y255.2230224609375 ; Move to start
G1 X234.59593200683594 Y255.22122192382812 ; Draw line
G0 X234.59593200683594 Y255.22122192382812 ; Move to start
G1 X237.062255859375 Y255.1455078125 ; Draw line
G0 X237.062255859375 Y255.1455078125 ; Move to start
G1 X237.087890625 Y255.14401245117188 ; Draw line
G0 X237.087890625 Y255.14401245117188 ; Move to start
G1 X239.55422973632812 Y255.07504272460938 ; Draw line
G0 X239.55422973632812 Y255.07504272460938 ; Move to start
G1 X239.57986450195312 Y255.0735321044922 ; Draw line
G0 X239.57986450195312 Y255.0735321044922 ; Move to start
G1 X242.04617309570312 Y254.99234008789062 ; Draw line
G0 X242.04617309570312 Y254.99234008789062 ; Move to start
G1 X242.07376098632812 Y254.98936462402344 ; Draw line
G0 X242.07376098632812 Y254.98936462402344 ; Move to start
G1 X244.56378173828125 Y254.86373901367188 ; Draw line
G0 X244.56378173828125 Y254.86373901367188 ; Move to start
G1 X247.02835083007812 Y254.6314697265625 ; Draw line
G0 X247.02835083007812 Y254.6314697265625 ; Move to start
G1 X247.05572509765625 Y254.6281280517578 ; Draw line
G0 X247.05572509765625 Y254.6281280517578 ; Move to start
G1 X247.58045959472656 Y254.50015258789062 ; Draw line
G0 X247.58045959472656 Y254.50015258789062 ; Move to start
G1 X249.64892578125 Y253.9595184326172 ; Draw line
G0 X249.64892578125 Y253.9595184326172 ; Move to start
G1 X249.71633911132812 Y253.93931579589844 ; Draw line
G0 X249.71633911132812 Y253.93931579589844 ; Move to start
G1 X249.87045288085938 Y253.90638732910156 ; Draw line
G0 X249.87045288085938 Y253.90638732910156 ; Move to start
G1 X250.6762237548828 Y253.03623962402344 ; Draw line
G0 X250.6762237548828 Y253.03623962402344 ; Move to start
G1 X251.7920379638672 Y252.01800537109375 ; Draw line
G0 X251.7920379638672 Y252.01800537109375 ; Move to start
G1 X251.80657958984375 Y251.9110107421875 ; Draw line
G0 X251.80657958984375 Y251.9110107421875 ; Move to start
G1 X251.8641357421875 Y251.85064697265625 ; Draw line
G0 X251.8641357421875 Y251.85064697265625 ; Move to start
G1 X251.88323974609375 Y251.7201385498047 ; Draw line
